(G-CODE GENERATED BY FLATCAM v8.994 - www.flatcam.org - Version Date: 2020/11/7)

(Name: green_led_pcb-F_Cu.gbr_iso_combined_cnc)
(Type: G-code from Geometry)
(Units: MM)

(Created on Monday, 20 November 2023 at 17:48)

(This preprocessor is the default preprocessor used by FlatCAM.)
(It is made to work with MACH3 compatible motion controllers.)

(TOOL DIAMETER: 0.2536 mm)
(Feedrate_XY: 120.0 mm/min)
(Feedrate_Z: 60.0 mm/min)
(Feedrate rapids 1500.0 mm/min)

(Z_Cut: -0.1 mm)
(Z_Move: 2.0 mm)
(Z Start: None mm)
(Z End: 15.0 mm)
(X,Y End: None mm)
(Steps per circle: 64)
(Preprocessor Geometry: default)

(X range:   10.2798 ...   78.4007  mm)
(Y range:   10.5245 ...   99.0755  mm)

(Spindle Speed: 0.0 RPM)
G21
G90
G94

G01 F120.00

M5
G00 Z15.0000
G00 X0.0000 Y0.0000
T2M6    
(MSG, Change to Tool Dia = 0.2536)
M0
G00 Z15.0000

M03
G01 F120.00
G00 X11.4050 Y12.9504
G01 F60.00
G01 Z-0.1000
G01 F120.00
G01 X11.6995 Y12.9504
G01 X11.7236 Y12.9514
G01 X11.7329 Y12.9525
G01 X11.7536 Y12.9557
G01 X11.7799 Y12.9623
G01 X11.8055 Y12.9714
G01 X11.8245 Y12.9802
G01 X11.8328 Y12.9845
G01 X11.8534 Y12.9970
G01 X11.8728 Y13.0113
G01 X11.8908 Y13.0272
G01 X11.8996 Y13.0360
G01 X11.9136 Y13.0516
G01 X11.9298 Y13.0734
G01 X11.9437 Y13.0967
G01 X11.9528 Y13.1156
G01 X11.9576 Y13.1271
G01 X11.9654 Y13.1498
G01 X11.9711 Y13.1732
G01 X11.9747 Y13.1970
G01 X11.9763 Y13.2210
G01 X11.9763 Y13.2335
G01 X11.9751 Y13.2544
G01 X11.9717 Y13.2782
G01 X11.9697 Y13.2873
G01 X11.9645 Y13.3076
G01 X11.9565 Y13.3303
G01 X11.9528 Y13.3389
G01 X11.9437 Y13.3577
G01 X11.9331 Y13.3758
G01 X11.9280 Y13.3836
G01 X11.9136 Y13.4029
G01 X11.8975 Y13.4208
G01 X11.8908 Y13.4273
G01 X11.8752 Y13.4413
G01 X11.8584 Y13.4539
G01 X11.8508 Y13.4591
G01 X11.8301 Y13.4714
G01 X11.8112 Y13.4805
G01 X11.8026 Y13.4842
G01 X11.7799 Y13.4922
G01 X11.7566 Y13.4981
G01 X11.7329 Y13.5020
G01 X11.7205 Y13.5032
G01 X11.6995 Y13.5041
G01 X11.4050 Y13.5041
G01 X11.4049 Y13.8018
G01 X11.4037 Y13.8258
G01 X11.4002 Y13.8496
G01 X11.3947 Y13.8730
G01 X11.3911 Y13.8849
G01 X11.3839 Y13.9046
G01 X11.3751 Y13.9236
G01 X11.3708 Y13.9319
G01 X11.3617 Y13.9472
G01 X11.3566 Y13.9550
G01 X11.3441 Y13.9719
G01 X11.3381 Y13.9790
G01 X11.3239 Y13.9944
G01 X11.3085 Y14.0086
G01 X11.3013 Y14.0146
G01 X11.2845 Y14.0271
G01 X11.2767 Y14.0322
G01 X11.2586 Y14.0428
G01 X11.2398 Y14.0519
G01 X11.2312 Y14.0556
G01 X11.2114 Y14.0627
G01 X11.1882 Y14.0689
G01 X11.1760 Y14.0713
G01 X11.1552 Y14.0742
G01 X11.1281 Y14.0755
G01 X11.1010 Y14.0742
G01 X11.0802 Y14.0713
G01 X11.0710 Y14.0696
G01 X11.0537 Y14.0653
G01 X11.0418 Y14.0617
G01 X11.0222 Y14.0545
G01 X10.9976 Y14.0428
G01 X10.9743 Y14.0289
G01 X10.9549 Y14.0146
G01 X10.9368 Y13.9987
G01 X10.9280 Y13.9899
G01 X10.9121 Y13.9719
G01 X10.8962 Y13.9499
G01 X10.8854 Y13.9319
G01 X10.8811 Y13.9236
G01 X10.8723 Y13.9046
G01 X10.8651 Y13.8849
G01 X10.8623 Y13.8760
G01 X10.8572 Y13.8557
G01 X10.8555 Y13.8465
G01 X10.8526 Y13.8258
G01 X10.8512 Y13.7987
G01 X10.8512 Y13.5041
G01 X10.5536 Y13.5041
G01 X10.5295 Y13.5028
G01 X10.5057 Y13.4994
G01 X10.4823 Y13.4938
G01 X10.4704 Y13.4902
G01 X10.4507 Y13.4830
G01 X10.4317 Y13.4742
G01 X10.4234 Y13.4699
G01 X10.4081 Y13.4608
G01 X10.4003 Y13.4557
G01 X10.3835 Y13.4432
G01 X10.3763 Y13.4372
G01 X10.3609 Y13.4230
G01 X10.3467 Y13.4076
G01 X10.3407 Y13.4004
G01 X10.3282 Y13.3836
G01 X10.3231 Y13.3758
G01 X10.3125 Y13.3577
G01 X10.3034 Y13.3389
G01 X10.2997 Y13.3303
G01 X10.2927 Y13.3106
G01 X10.2865 Y13.2873
G01 X10.2841 Y13.2751
G01 X10.2811 Y13.2544
G01 X10.2798 Y13.2272
G01 X10.2811 Y13.2001
G01 X10.2841 Y13.1793
G01 X10.2858 Y13.1702
G01 X10.2901 Y13.1529
G01 X10.2937 Y13.1409
G01 X10.3009 Y13.1213
G01 X10.3125 Y13.0967
G01 X10.3265 Y13.0734
G01 X10.3407 Y13.0540
G01 X10.3566 Y13.0360
G01 X10.3654 Y13.0272
G01 X10.3835 Y13.0113
G01 X10.4055 Y12.9953
G01 X10.4234 Y12.9845
G01 X10.4317 Y12.9802
G01 X10.4507 Y12.9714
G01 X10.4704 Y12.9642
G01 X10.4793 Y12.9614
G01 X10.4996 Y12.9563
G01 X10.5088 Y12.9546
G01 X10.5295 Y12.9517
G01 X10.5567 Y12.9504
G01 X10.8512 Y12.9504
G01 X10.8513 Y12.6527
G01 X10.8526 Y12.6287
G01 X10.8560 Y12.6048
G01 X10.8615 Y12.5814
G01 X10.8651 Y12.5695
G01 X10.8712 Y12.5527
G01 X10.8748 Y12.5442
G01 X10.8839 Y12.5253
G01 X10.8946 Y12.5072
G01 X10.8997 Y12.4994
G01 X10.9121 Y12.4826
G01 X10.9181 Y12.4754
G01 X10.9323 Y12.4600
G01 X10.9477 Y12.4458
G01 X10.9549 Y12.4398
G01 X10.9717 Y12.4273
G01 X10.9795 Y12.4223
G01 X10.9976 Y12.4116
G01 X11.0165 Y12.4025
G01 X11.0250 Y12.3988
G01 X11.0448 Y12.3918
G01 X11.0680 Y12.3856
G01 X11.0802 Y12.3832
G01 X11.1010 Y12.3803
G01 X11.1281 Y12.3789
G01 X11.1552 Y12.3803
G01 X11.1760 Y12.3832
G01 X11.1852 Y12.3849
G01 X11.2025 Y12.3892
G01 X11.2144 Y12.3928
G01 X11.2341 Y12.4000
G01 X11.2586 Y12.4116
G01 X11.2819 Y12.4256
G01 X11.3013 Y12.4398
G01 X11.3217 Y12.4578
G01 X11.3381 Y12.4754
G01 X11.3460 Y12.4851
G01 X11.3600 Y12.5046
G01 X11.3708 Y12.5226
G01 X11.3751 Y12.5308
G01 X11.3839 Y12.5498
G01 X11.3911 Y12.5695
G01 X11.3939 Y12.5784
G01 X11.3990 Y12.5987
G01 X11.4007 Y12.6079
G01 X11.4037 Y12.6287
G01 X11.4050 Y12.6558
G01 X11.4050 Y12.9504
G00 Z2.0000
G00 X14.5755 Y10.6513
G01 F60.00
G01 Z-0.1000
G01 F120.00
G01 X14.5755 Y12.3513
G01 X14.5746 Y12.3668
G01 X14.5717 Y12.3821
G01 X14.5691 Y12.3911
G01 X14.5659 Y12.3998
G01 X14.5620 Y12.4083
G01 X14.5575 Y12.4165
G01 X14.5524 Y12.4243
G01 X14.5467 Y12.4317
G01 X14.5361 Y12.4431
G01 X14.5242 Y12.4531
G01 X14.5165 Y12.4584
G01 X14.5085 Y12.4631
G01 X14.5001 Y12.4672
G01 X14.4914 Y12.4707
G01 X14.4825 Y12.4735
G01 X14.4734 Y12.4757
G01 X14.4611 Y12.4775
G01 X14.4487 Y12.4781
G01 X14.1007 Y12.4781
G01 X14.1007 Y15.7245
G01 X15.2049 Y15.7246
G01 X15.2173 Y15.7259
G01 X15.2325 Y15.7291
G01 X15.2472 Y15.7341
G01 X15.2585 Y15.7395
G01 X15.2717 Y15.7476
G01 X15.2815 Y15.7553
G01 X15.2905 Y15.7639
G01 X15.3006 Y15.7758
G01 X15.3075 Y15.7861
G01 X15.3120 Y15.7943
G01 X15.3159 Y15.8028
G01 X15.3191 Y15.8115
G01 X15.3224 Y15.8235
G01 X15.3241 Y15.8327
G01 X15.3252 Y15.8420
G01 X15.3255 Y15.8513
G01 X15.3255 Y17.3513
G01 X15.3252 Y17.3606
G01 X15.3241 Y17.3699
G01 X15.3224 Y17.3791
G01 X15.3200 Y17.3881
G01 X15.3170 Y17.3969
G01 X15.3133 Y17.4055
G01 X15.3090 Y17.4138
G01 X15.3041 Y17.4217
G01 X15.2967 Y17.4317
G01 X15.2905 Y17.4387
G01 X15.2839 Y17.4452
G01 X15.2767 Y17.4513
G01 X15.2692 Y17.4567
G01 X15.2612 Y17.4616
G01 X15.2529 Y17.4659
G01 X15.2414 Y17.4707
G01 X15.2295 Y17.4743
G01 X15.2204 Y17.4762
G01 X15.2111 Y17.4775
G01 X15.2018 Y17.4781
G01 X12.5987 Y17.4781
G01 X12.5894 Y17.4777
G01 X12.5801 Y17.4767
G01 X12.5709 Y17.4750
G01 X12.5619 Y17.4726
G01 X12.5531 Y17.4696
G01 X12.5445 Y17.4659
G01 X12.5362 Y17.4616
G01 X12.5283 Y17.4567
G01 X12.5183 Y17.4493
G01 X12.5113 Y17.4431
G01 X12.5048 Y17.4364
G01 X12.4987 Y17.4293
G01 X12.4933 Y17.4217
G01 X12.4884 Y17.4138
G01 X12.4841 Y17.4055
G01 X12.4804 Y17.3969
G01 X12.4774 Y17.3881
G01 X12.4750 Y17.3791
G01 X12.4729 Y17.3668
G01 X12.4721 Y17.3575
G01 X12.4719 Y15.8513
G01 X12.4723 Y15.8420
G01 X12.4733 Y15.8327
G01 X12.4750 Y15.8235
G01 X12.4774 Y15.8145
G01 X12.4804 Y15.8057
G01 X12.4841 Y15.7971
G01 X12.4884 Y15.7888
G01 X12.4933 Y15.7808
G01 X12.4987 Y15.7733
G01 X12.5048 Y15.7661
G01 X12.5159 Y15.7553
G01 X12.5232 Y15.7494
G01 X12.5309 Y15.7442
G01 X12.5389 Y15.7395
G01 X12.5473 Y15.7354
G01 X12.5619 Y15.7300
G01 X12.5709 Y15.7276
G01 X12.5801 Y15.7259
G01 X12.5894 Y15.7248
G01 X12.5987 Y15.7245
G01 X13.0967 Y15.7245
G01 X13.0967 Y12.4781
G01 X12.7487 Y12.4781
G01 X12.7363 Y12.4775
G01 X12.7240 Y12.4757
G01 X12.7149 Y12.4735
G01 X12.7060 Y12.4707
G01 X12.6973 Y12.4672
G01 X12.6889 Y12.4631
G01 X12.6757 Y12.4550
G01 X12.6683 Y12.4493
G01 X12.6613 Y12.4431
G01 X12.6507 Y12.4317
G01 X12.6450 Y12.4243
G01 X12.6399 Y12.4165
G01 X12.6354 Y12.4083
G01 X12.6316 Y12.3998
G01 X12.6283 Y12.3911
G01 X12.6257 Y12.3821
G01 X12.6229 Y12.3668
G01 X12.6219 Y12.3513
G01 X12.6219 Y10.6513
G01 X12.6223 Y10.6420
G01 X12.6233 Y10.6327
G01 X12.6250 Y10.6235
G01 X12.6274 Y10.6145
G01 X12.6304 Y10.6057
G01 X12.6341 Y10.5971
G01 X12.6384 Y10.5888
G01 X12.6450 Y10.5783
G01 X12.6507 Y10.5709
G01 X12.6569 Y10.5639
G01 X12.6636 Y10.5573
G01 X12.6707 Y10.5513
G01 X12.6783 Y10.5459
G01 X12.6862 Y10.5410
G01 X12.6945 Y10.5367
G01 X12.7031 Y10.5330
G01 X12.7119 Y10.5300
G01 X12.7209 Y10.5276
G01 X12.7301 Y10.5259
G01 X12.7425 Y10.5246
G01 X14.4518 Y10.5245
G01 X14.4642 Y10.5254
G01 X14.4765 Y10.5276
G01 X14.4885 Y10.5309
G01 X14.5001 Y10.5354
G01 X14.5112 Y10.5410
G01 X14.5217 Y10.5476
G01 X14.5315 Y10.5553
G01 X14.5405 Y10.5639
G01 X14.5467 Y10.5709
G01 X14.5541 Y10.5808
G01 X14.5605 Y10.5915
G01 X14.5659 Y10.6028
G01 X14.5700 Y10.6145
G01 X14.5731 Y10.6266
G01 X14.5749 Y10.6389
G01 X14.5755 Y10.6513
G00 Z2.0000
G00 X15.3255 Y18.8513
G01 F60.00
G01 Z-0.1000
G01 F120.00
G01 X15.3255 Y20.3513
G01 X15.3246 Y20.3668
G01 X15.3217 Y20.3821
G01 X15.3191 Y20.3911
G01 X15.3159 Y20.3998
G01 X15.3090 Y20.4138
G01 X15.3006 Y20.4268
G01 X15.2905 Y20.4387
G01 X15.2791 Y20.4493
G01 X15.2665 Y20.4584
G01 X15.2529 Y20.4659
G01 X15.2385 Y20.4717
G01 X15.2234 Y20.4757
G01 X15.2080 Y20.4777
G01 X15.1987 Y20.4781
G01 X14.4007 Y20.4781
G01 X14.4007 Y35.7245
G01 X15.1987 Y35.7245
G01 X15.2080 Y35.7248
G01 X15.2234 Y35.7269
G01 X15.2385 Y35.7309
G01 X15.2529 Y35.7367
G01 X15.2665 Y35.7442
G01 X15.2791 Y35.7533
G01 X15.2905 Y35.7639
G01 X15.3006 Y35.7758
G01 X15.3090 Y35.7888
G01 X15.3159 Y35.8028
G01 X15.3209 Y35.8175
G01 X15.3231 Y35.8266
G01 X15.3246 Y35.8358
G01 X15.3255 Y35.8513
G01 X15.3255 Y37.3513
G01 X15.3252 Y37.3606
G01 X15.3241 Y37.3699
G01 X15.3217 Y37.3821
G01 X15.3191 Y37.3911
G01 X15.3159 Y37.3998
G01 X15.3105 Y37.4111
G01 X15.3058 Y37.4191
G01 X15.2987 Y37.4293
G01 X15.2927 Y37.4364
G01 X15.2839 Y37.4452
G01 X15.2742 Y37.4531
G01 X15.2665 Y37.4584
G01 X15.2557 Y37.4646
G01 X15.2472 Y37.4684
G01 X15.2385 Y37.4717
G01 X15.2265 Y37.4750
G01 X15.2142 Y37.4771
G01 X15.2049 Y37.4779
G01 X12.5987 Y37.4781
G01 X12.5894 Y37.4777
G01 X12.5801 Y37.4767
G01 X12.5679 Y37.4743
G01 X12.5589 Y37.4717
G01 X12.5502 Y37.4684
G01 X12.5389 Y37.4631
G01 X12.5283 Y37.4567
G01 X12.5207 Y37.4513
G01 X12.5113 Y37.4431
G01 X12.5048 Y37.4364
G01 X12.4987 Y37.4293
G01 X12.4916 Y37.4191
G01 X12.4854 Y37.4083
G01 X12.4816 Y37.3998
G01 X12.4783 Y37.3911
G01 X12.4750 Y37.3791
G01 X12.4733 Y37.3699
G01 X12.4721 Y37.3575
G01 X12.4719 Y35.8513
G01 X12.4729 Y35.8358
G01 X12.4750 Y35.8235
G01 X12.4783 Y35.8115
G01 X12.4841 Y35.7971
G01 X12.4884 Y35.7888
G01 X12.4933 Y35.7808
G01 X12.5027 Y35.7685
G01 X12.5136 Y35.7573
G01 X12.5207 Y35.7513
G01 X12.5283 Y35.7459
G01 X12.5417 Y35.7380
G01 X12.5502 Y35.7341
G01 X12.5589 Y35.7309
G01 X12.5740 Y35.7269
G01 X12.5894 Y35.7248
G01 X12.5987 Y35.7245
G01 X13.3967 Y35.7245
G01 X13.3967 Y20.4781
G01 X12.5987 Y20.4781
G01 X12.5894 Y20.4777
G01 X12.5740 Y20.4757
G01 X12.5589 Y20.4717
G01 X12.5445 Y20.4659
G01 X12.5309 Y20.4584
G01 X12.5183 Y20.4493
G01 X12.5069 Y20.4387
G01 X12.4969 Y20.4268
G01 X12.4884 Y20.4138
G01 X12.4816 Y20.3998
G01 X12.4765 Y20.3851
G01 X12.4733 Y20.3699
G01 X12.4723 Y20.3606
G01 X12.4719 Y20.3513
G01 X12.4719 Y18.8513
G01 X12.4723 Y18.8420
G01 X12.4733 Y18.8327
G01 X12.4750 Y18.8235
G01 X12.4783 Y18.8115
G01 X12.4816 Y18.8028
G01 X12.4869 Y18.7915
G01 X12.4933 Y18.7808
G01 X12.4987 Y18.7733
G01 X12.5048 Y18.7661
G01 X12.5136 Y18.7573
G01 X12.5207 Y18.7513
G01 X12.5309 Y18.7442
G01 X12.5417 Y18.7380
G01 X12.5502 Y18.7341
G01 X12.5589 Y18.7309
G01 X12.5709 Y18.7276
G01 X12.5832 Y18.7254
G01 X12.5925 Y18.7246
G01 X15.1987 Y18.7245
G01 X15.2111 Y18.7251
G01 X15.2234 Y18.7269
G01 X15.2355 Y18.7300
G01 X15.2472 Y18.7341
G01 X15.2585 Y18.7395
G01 X15.2692 Y18.7459
G01 X15.2791 Y18.7533
G01 X15.2884 Y18.7616
G01 X15.2967 Y18.7709
G01 X15.3041 Y18.7808
G01 X15.3105 Y18.7915
G01 X15.3159 Y18.8028
G01 X15.3200 Y18.8145
G01 X15.3231 Y18.8266
G01 X15.3249 Y18.8389
G01 X15.3255 Y18.8513
G00 Z2.0000
G00 X35.3255 Y18.8513
G01 F60.00
G01 Z-0.1000
G01 F120.00
G01 X35.3255 Y20.3513
G01 X35.3252 Y20.3606
G01 X35.3241 Y20.3699
G01 X35.3209 Y20.3851
G01 X35.3159 Y20.3998
G01 X35.3090 Y20.4138
G01 X35.3006 Y20.4268
G01 X35.2905 Y20.4387
G01 X35.2791 Y20.4493
G01 X35.2665 Y20.4584
G01 X35.2529 Y20.4659
G01 X35.2385 Y20.4717
G01 X35.2234 Y20.4757
G01 X35.2080 Y20.4777
G01 X35.1987 Y20.4781
G01 X34.4007 Y20.4781
G01 X34.4007 Y35.7245
G01 X35.1987 Y35.7245
G01 X35.2080 Y35.7248
G01 X35.2234 Y35.7269
G01 X35.2385 Y35.7309
G01 X35.2529 Y35.7367
G01 X35.2665 Y35.7442
G01 X35.2791 Y35.7533
G01 X35.2905 Y35.7639
G01 X35.3006 Y35.7758
G01 X35.3090 Y35.7888
G01 X35.3159 Y35.8028
G01 X35.3209 Y35.8175
G01 X35.3241 Y35.8327
G01 X35.3252 Y35.8420
G01 X35.3255 Y35.8513
G01 X35.3255 Y37.3513
G01 X35.3252 Y37.3606
G01 X35.3241 Y37.3699
G01 X35.3224 Y37.3791
G01 X35.3191 Y37.3911
G01 X35.3146 Y37.4027
G01 X35.3105 Y37.4111
G01 X35.3058 Y37.4191
G01 X35.2987 Y37.4293
G01 X35.2927 Y37.4364
G01 X35.2839 Y37.4452
G01 X35.2742 Y37.4531
G01 X35.2665 Y37.4584
G01 X35.2585 Y37.4631
G01 X35.2472 Y37.4684
G01 X35.2385 Y37.4717
G01 X35.2265 Y37.4750
G01 X35.2142 Y37.4771
G01 X35.2049 Y37.4779
G01 X32.5987 Y37.4781
G01 X32.5894 Y37.4777
G01 X32.5801 Y37.4767
G01 X32.5679 Y37.4743
G01 X32.5589 Y37.4717
G01 X32.5502 Y37.4684
G01 X32.5389 Y37.4631
G01 X32.5283 Y37.4567
G01 X32.5207 Y37.4513
G01 X32.5113 Y37.4431
G01 X32.5048 Y37.4364
G01 X32.4969 Y37.4268
G01 X32.4916 Y37.4191
G01 X32.4854 Y37.4083
G01 X32.4816 Y37.3998
G01 X32.4783 Y37.3911
G01 X32.4750 Y37.3791
G01 X32.4733 Y37.3699
G01 X32.4721 Y37.3575
G01 X32.4719 Y35.8513
G01 X32.4725 Y35.8389
G01 X32.4750 Y35.8235
G01 X32.4793 Y35.8086
G01 X32.4841 Y35.7971
G01 X32.4884 Y35.7888
G01 X32.4933 Y35.7808
G01 X32.5027 Y35.7685
G01 X32.5136 Y35.7573
G01 X32.5207 Y35.7513
G01 X32.5283 Y35.7459
G01 X32.5417 Y35.7380
G01 X32.5560 Y35.7319
G01 X32.5649 Y35.7291
G01 X32.5740 Y35.7269
G01 X32.5894 Y35.7248
G01 X32.5987 Y35.7245
G01 X33.3967 Y35.7245
G01 X33.3967 Y20.4781
G01 X32.5987 Y20.4781
G01 X32.5894 Y20.4777
G01 X32.5740 Y20.4757
G01 X32.5589 Y20.4717
G01 X32.5445 Y20.4659
G01 X32.5309 Y20.4584
G01 X32.5183 Y20.4493
G01 X32.5069 Y20.4387
G01 X32.4969 Y20.4268
G01 X32.4884 Y20.4138
G01 X32.4816 Y20.3998
G01 X32.4765 Y20.3851
G01 X32.4733 Y20.3699
G01 X32.4723 Y20.3606
G01 X32.4719 Y20.3513
G01 X32.4719 Y18.8513
G01 X32.4723 Y18.8420
G01 X32.4733 Y18.8327
G01 X32.4757 Y18.8205
G01 X32.4783 Y18.8115
G01 X32.4828 Y18.7999
G01 X32.4869 Y18.7915
G01 X32.4916 Y18.7835
G01 X32.4987 Y18.7733
G01 X32.5048 Y18.7661
G01 X32.5136 Y18.7573
G01 X32.5232 Y18.7494
G01 X32.5309 Y18.7442
G01 X32.5417 Y18.7380
G01 X32.5502 Y18.7341
G01 X32.5589 Y18.7309
G01 X32.5709 Y18.7276
G01 X32.5832 Y18.7254
G01 X32.5925 Y18.7246
G01 X35.1987 Y18.7245
G01 X35.2111 Y18.7251
G01 X35.2234 Y18.7269
G01 X35.2355 Y18.7300
G01 X35.2472 Y18.7341
G01 X35.2585 Y18.7395
G01 X35.2692 Y18.7459
G01 X35.2791 Y18.7533
G01 X35.2884 Y18.7616
G01 X35.2967 Y18.7709
G01 X35.3041 Y18.7808
G01 X35.3105 Y18.7915
G01 X35.3159 Y18.8028
G01 X35.3200 Y18.8145
G01 X35.3231 Y18.8266
G01 X35.3249 Y18.8389
G01 X35.3255 Y18.8513
G00 Z2.0000
G00 X36.3754 Y12.4479
G01 F60.00
G01 Z-0.1000
G01 F120.00
G01 X36.3353 Y12.4580
G01 X36.3262 Y12.4599
G01 X36.2375 Y12.4730
G01 X36.2282 Y12.4738
G01 X36.1418 Y12.4781
G01 X36.1325 Y12.4779
G01 X36.0430 Y12.4734
G01 X35.9512 Y12.4599
G01 X35.9421 Y12.4580
G01 X35.8552 Y12.4360
G01 X35.7649 Y12.4037
G01 X35.6782 Y12.3628
G01 X35.5986 Y12.3152
G01 X35.5909 Y12.3099
G01 X35.5190 Y12.2564
G01 X35.4480 Y12.1920
G01 X35.3836 Y12.1210
G01 X35.3265 Y12.0440
G01 X35.2772 Y11.9618
G01 X35.2363 Y11.8751
G01 X35.2040 Y11.7848
G01 X35.1813 Y11.6949
G01 X35.1796 Y11.6857
G01 X35.1666 Y11.5970
G01 X35.1619 Y11.5013
G01 X35.1666 Y11.4055
G01 X35.1807 Y11.3107
G01 X35.2040 Y11.2177
G01 X35.2363 Y11.1275
G01 X35.2772 Y11.0408
G01 X35.3265 Y10.9586
G01 X35.3836 Y10.8816
G01 X35.4480 Y10.8106
G01 X35.5190 Y10.7462
G01 X35.5960 Y10.6891
G01 X35.6782 Y10.6398
G01 X35.7649 Y10.5988
G01 X35.8552 Y10.5666
G01 X35.9451 Y10.5439
G01 X35.9543 Y10.5422
G01 X36.0430 Y10.5292
G01 X36.1325 Y10.5246
G01 X36.1449 Y10.5246
G01 X36.2345 Y10.5292
G01 X36.3231 Y10.5422
G01 X36.3353 Y10.5446
G01 X36.4223 Y10.5666
G01 X36.5067 Y10.5966
G01 X36.5182 Y10.6014
G01 X36.5992 Y10.6398
G01 X36.6761 Y10.6858
G01 X36.6865 Y10.6927
G01 X36.7584 Y10.7462
G01 X36.8249 Y10.8063
G01 X36.8316 Y10.8128
G01 X36.8897 Y10.8769
G01 X36.8976 Y10.8865
G01 X36.9509 Y10.9586
G01 X36.9971 Y11.0354
G01 X37.0030 Y11.0464
G01 X37.0412 Y11.1275
G01 X37.0715 Y11.2118
G01 X37.0743 Y11.2207
G01 X37.0954 Y11.3047
G01 X37.0978 Y11.3169
G01 X37.1108 Y11.4055
G01 X37.1155 Y11.4982
G01 X37.1154 Y11.5075
G01 X37.1113 Y11.5908
G01 X37.1105 Y11.6001
G01 X37.0973 Y11.6888
G01 X37.0954 Y11.6979
G01 X37.0853 Y11.7380
G01 X39.2580 Y13.9108
G01 X39.2868 Y13.9428
G01 X39.3161 Y13.9824
G01 X39.3414 Y14.0247
G01 X39.3625 Y14.0692
G01 X39.3791 Y14.1156
G01 X39.3911 Y14.1634
G01 X39.3983 Y14.2121
G01 X39.4005 Y14.2551
G01 X39.4007 Y77.1013
G01 X39.3987 Y77.1443
G01 X39.3979 Y77.1536
G01 X39.3921 Y77.1931
G01 X39.3897 Y77.2053
G01 X39.3807 Y77.2410
G01 X39.3781 Y77.2500
G01 X39.3647 Y77.2876
G01 X39.3600 Y77.2991
G01 X39.3414 Y77.3379
G01 X39.3161 Y77.3802
G01 X39.2868 Y77.4197
G01 X39.2558 Y77.4540
G01 X36.7537 Y79.9562
G01 X36.7172 Y79.9893
G01 X36.6827 Y80.0151
G01 X36.6723 Y80.0220
G01 X36.6408 Y80.0409
G01 X36.6326 Y80.0454
G01 X36.5908 Y80.0651
G01 X36.5503 Y80.0797
G01 X36.5384 Y80.0833
G01 X36.4966 Y80.0936
G01 X36.4541 Y80.1001
G01 X36.4448 Y80.1011
G01 X36.4049 Y80.1031
G01 X35.3255 Y80.1033
G01 X35.3255 Y80.3544
G01 X35.3241 Y80.3699
G01 X35.3224 Y80.3791
G01 X35.3200 Y80.3881
G01 X35.3170 Y80.3969
G01 X35.3133 Y80.4055
G01 X35.3090 Y80.4138
G01 X35.3041 Y80.4217
G01 X35.2987 Y80.4293
G01 X35.2927 Y80.4364
G01 X35.2861 Y80.4431
G01 X35.2791 Y80.4493
G01 X35.2717 Y80.4550
G01 X35.2639 Y80.4601
G01 X35.2557 Y80.4646
G01 X35.2472 Y80.4684
G01 X35.2385 Y80.4717
G01 X35.2295 Y80.4743
G01 X35.2204 Y80.4762
G01 X35.2111 Y80.4775
G01 X35.1987 Y80.4781
G01 X32.5925 Y80.4779
G01 X32.5801 Y80.4767
G01 X32.5679 Y80.4743
G01 X32.5589 Y80.4717
G01 X32.5473 Y80.4672
G01 X32.5362 Y80.4616
G01 X32.5257 Y80.4550
G01 X32.5183 Y80.4493
G01 X32.5090 Y80.4410
G01 X32.5027 Y80.4341
G01 X32.4950 Y80.4243
G01 X32.4884 Y80.4138
G01 X32.4828 Y80.4027
G01 X32.4783 Y80.3911
G01 X32.4750 Y80.3791
G01 X32.4729 Y80.3668
G01 X32.4719 Y80.3544
G01 X32.4719 Y78.8482
G01 X32.4733 Y78.8327
G01 X32.4765 Y78.8175
G01 X32.4816 Y78.8028
G01 X32.4884 Y78.7888
G01 X32.4969 Y78.7758
G01 X32.5069 Y78.7639
G01 X32.5183 Y78.7533
G01 X32.5309 Y78.7442
G01 X32.5389 Y78.7395
G01 X32.5473 Y78.7354
G01 X32.5619 Y78.7300
G01 X32.5709 Y78.7276
G01 X32.5801 Y78.7259
G01 X32.5894 Y78.7248
G01 X32.5987 Y78.7245
G01 X35.1987 Y78.7245
G01 X35.2111 Y78.7251
G01 X35.2204 Y78.7264
G01 X35.2295 Y78.7283
G01 X35.2385 Y78.7309
G01 X35.2472 Y78.7341
G01 X35.2557 Y78.7380
G01 X35.2639 Y78.7425
G01 X35.2717 Y78.7476
G01 X35.2791 Y78.7533
G01 X35.2861 Y78.7595
G01 X35.2927 Y78.7661
G01 X35.2987 Y78.7733
G01 X35.3041 Y78.7808
G01 X35.3090 Y78.7888
G01 X35.3133 Y78.7971
G01 X35.3170 Y78.8057
G01 X35.3200 Y78.8145
G01 X35.3236 Y78.8296
G01 X35.3249 Y78.8389
G01 X35.3255 Y78.8482
G01 X35.3255 Y79.0993
G01 X36.1908 Y79.0993
G01 X38.3967 Y76.8934
G01 X38.3967 Y14.4692
G01 X36.3754 Y12.4479
G00 Z2.0000
G00 X34.5755 Y10.6513
G01 F60.00
G01 Z-0.1000
G01 F120.00
G01 X34.5755 Y12.3513
G01 X34.5746 Y12.3668
G01 X34.5717 Y12.3821
G01 X34.5691 Y12.3911
G01 X34.5659 Y12.3998
G01 X34.5620 Y12.4083
G01 X34.5575 Y12.4165
G01 X34.5524 Y12.4243
G01 X34.5467 Y12.4317
G01 X34.5361 Y12.4431
G01 X34.5291 Y12.4493
G01 X34.5217 Y12.4550
G01 X34.5139 Y12.4601
G01 X34.5057 Y12.4646
G01 X34.4914 Y12.4707
G01 X34.4825 Y12.4735
G01 X34.4734 Y12.4757
G01 X34.4611 Y12.4775
G01 X34.4487 Y12.4781
G01 X34.1007 Y12.4781
G01 X34.1007 Y15.7245
G01 X35.2049 Y15.7246
G01 X35.2204 Y15.7264
G01 X35.2325 Y15.7291
G01 X35.2472 Y15.7341
G01 X35.2585 Y15.7395
G01 X35.2717 Y15.7476
G01 X35.2815 Y15.7553
G01 X35.2905 Y15.7639
G01 X35.3006 Y15.7758
G01 X35.3058 Y15.7835
G01 X35.3105 Y15.7915
G01 X35.3146 Y15.7999
G01 X35.3191 Y15.8115
G01 X35.3224 Y15.8235
G01 X35.3241 Y15.8327
G01 X35.3252 Y15.8420
G01 X35.3255 Y15.8513
G01 X35.3255 Y17.3513
G01 X35.3252 Y17.3606
G01 X35.3241 Y17.3699
G01 X35.3224 Y17.3791
G01 X35.3200 Y17.3881
G01 X35.3170 Y17.3969
G01 X35.3133 Y17.4055
G01 X35.3090 Y17.4138
G01 X35.3041 Y17.4217
G01 X35.2967 Y17.4317
G01 X35.2905 Y17.4387
G01 X35.2839 Y17.4452
G01 X35.2767 Y17.4513
G01 X35.2665 Y17.4584
G01 X35.2585 Y17.4631
G01 X35.2501 Y17.4672
G01 X35.2414 Y17.4707
G01 X35.2295 Y17.4743
G01 X35.2204 Y17.4762
G01 X35.2111 Y17.4775
G01 X35.2018 Y17.4781
G01 X32.5987 Y17.4781
G01 X32.5894 Y17.4777
G01 X32.5801 Y17.4767
G01 X32.5709 Y17.4750
G01 X32.5619 Y17.4726
G01 X32.5531 Y17.4696
G01 X32.5417 Y17.4646
G01 X32.5335 Y17.4601
G01 X32.5257 Y17.4550
G01 X32.5183 Y17.4493
G01 X32.5113 Y17.4431
G01 X32.5048 Y17.4364
G01 X32.4987 Y17.4293
G01 X32.4933 Y17.4217
G01 X32.4869 Y17.4111
G01 X32.4828 Y17.4027
G01 X32.4793 Y17.3940
G01 X32.4765 Y17.3851
G01 X32.4743 Y17.3760
G01 X32.4729 Y17.3668
G01 X32.4721 Y17.3575
G01 X32.4719 Y15.8513
G01 X32.4723 Y15.8420
G01 X32.4733 Y15.8327
G01 X32.4750 Y15.8235
G01 X32.4774 Y15.8145
G01 X32.4804 Y15.8057
G01 X32.4841 Y15.7971
G01 X32.4884 Y15.7888
G01 X32.4933 Y15.7808
G01 X32.4987 Y15.7733
G01 X32.5048 Y15.7661
G01 X32.5159 Y15.7553
G01 X32.5232 Y15.7494
G01 X32.5309 Y15.7442
G01 X32.5389 Y15.7395
G01 X32.5473 Y15.7354
G01 X32.5560 Y15.7319
G01 X32.5649 Y15.7291
G01 X32.5801 Y15.7259
G01 X32.5894 Y15.7248
G01 X32.5987 Y15.7245
G01 X33.0967 Y15.7245
G01 X33.0967 Y12.4781
G01 X32.7487 Y12.4781
G01 X32.7363 Y12.4775
G01 X32.7240 Y12.4757
G01 X32.7149 Y12.4735
G01 X32.7060 Y12.4707
G01 X32.6973 Y12.4672
G01 X32.6889 Y12.4631
G01 X32.6757 Y12.4550
G01 X32.6683 Y12.4493
G01 X32.6613 Y12.4431
G01 X32.6548 Y12.4364
G01 X32.6487 Y12.4293
G01 X32.6433 Y12.4217
G01 X32.6384 Y12.4138
G01 X32.6341 Y12.4055
G01 X32.6304 Y12.3969
G01 X32.6257 Y12.3821
G01 X32.6229 Y12.3668
G01 X32.6219 Y12.3513
G01 X32.6219 Y10.6513
G01 X32.6223 Y10.6420
G01 X32.6233 Y10.6327
G01 X32.6250 Y10.6235
G01 X32.6274 Y10.6145
G01 X32.6316 Y10.6028
G01 X32.6354 Y10.5943
G01 X32.6399 Y10.5861
G01 X32.6450 Y10.5783
G01 X32.6507 Y10.5709
G01 X32.6569 Y10.5639
G01 X32.6636 Y10.5573
G01 X32.6707 Y10.5513
G01 X32.6783 Y10.5459
G01 X32.6862 Y10.5410
G01 X32.6945 Y10.5367
G01 X32.7031 Y10.5330
G01 X32.7119 Y10.5300
G01 X32.7209 Y10.5276
G01 X32.7301 Y10.5259
G01 X32.7425 Y10.5246
G01 X34.4518 Y10.5245
G01 X34.4642 Y10.5254
G01 X34.4734 Y10.5269
G01 X34.4855 Y10.5300
G01 X34.4972 Y10.5341
G01 X34.5085 Y10.5395
G01 X34.5192 Y10.5459
G01 X34.5291 Y10.5533
G01 X34.5384 Y10.5616
G01 X34.5467 Y10.5709
G01 X34.5541 Y10.5808
G01 X34.5605 Y10.5915
G01 X34.5659 Y10.6028
G01 X34.5700 Y10.6145
G01 X34.5731 Y10.6266
G01 X34.5749 Y10.6389
G01 X34.5755 Y10.6513
G00 Z2.0000
G00 X54.5755 Y10.6513
G01 F60.00
G01 Z-0.1000
G01 F120.00
G01 X54.5755 Y12.3513
G01 X54.5746 Y12.3668
G01 X54.5717 Y12.3821
G01 X54.5691 Y12.3911
G01 X54.5659 Y12.3998
G01 X54.5620 Y12.4083
G01 X54.5575 Y12.4165
G01 X54.5524 Y12.4243
G01 X54.5467 Y12.4317
G01 X54.5361 Y12.4431
G01 X54.5291 Y12.4493
G01 X54.5217 Y12.4550
G01 X54.5139 Y12.4601
G01 X54.5057 Y12.4646
G01 X54.4914 Y12.4707
G01 X54.4825 Y12.4735
G01 X54.4734 Y12.4757
G01 X54.4611 Y12.4775
G01 X54.4487 Y12.4781
G01 X54.1007 Y12.4781
G01 X54.1007 Y15.7245
G01 X55.2049 Y15.7246
G01 X55.2173 Y15.7259
G01 X55.2325 Y15.7291
G01 X55.2472 Y15.7341
G01 X55.2585 Y15.7395
G01 X55.2692 Y15.7459
G01 X55.2815 Y15.7553
G01 X55.2905 Y15.7639
G01 X55.3006 Y15.7758
G01 X55.3058 Y15.7835
G01 X55.3105 Y15.7915
G01 X55.3159 Y15.8028
G01 X55.3191 Y15.8115
G01 X55.3224 Y15.8235
G01 X55.3241 Y15.8327
G01 X55.3252 Y15.8420
G01 X55.3255 Y15.8513
G01 X55.3255 Y17.3513
G01 X55.3252 Y17.3606
G01 X55.3241 Y17.3699
G01 X55.3224 Y17.3791
G01 X55.3200 Y17.3881
G01 X55.3170 Y17.3969
G01 X55.3133 Y17.4055
G01 X55.3090 Y17.4138
G01 X55.3041 Y17.4217
G01 X55.2967 Y17.4317
G01 X55.2905 Y17.4387
G01 X55.2839 Y17.4452
G01 X55.2767 Y17.4513
G01 X55.2665 Y17.4584
G01 X55.2585 Y17.4631
G01 X55.2501 Y17.4672
G01 X55.2414 Y17.4707
G01 X55.2295 Y17.4743
G01 X55.2204 Y17.4762
G01 X55.2111 Y17.4775
G01 X55.2018 Y17.4781
G01 X52.5987 Y17.4781
G01 X52.5894 Y17.4777
G01 X52.5801 Y17.4767
G01 X52.5709 Y17.4750
G01 X52.5619 Y17.4726
G01 X52.5531 Y17.4696
G01 X52.5417 Y17.4646
G01 X52.5335 Y17.4601
G01 X52.5257 Y17.4550
G01 X52.5183 Y17.4493
G01 X52.5113 Y17.4431
G01 X52.5048 Y17.4364
G01 X52.4987 Y17.4293
G01 X52.4933 Y17.4217
G01 X52.4869 Y17.4111
G01 X52.4828 Y17.4027
G01 X52.4793 Y17.3940
G01 X52.4765 Y17.3851
G01 X52.4743 Y17.3760
G01 X52.4729 Y17.3668
G01 X52.4721 Y17.3575
G01 X52.4719 Y15.8513
G01 X52.4723 Y15.8420
G01 X52.4733 Y15.8327
G01 X52.4750 Y15.8235
G01 X52.4774 Y15.8145
G01 X52.4804 Y15.8057
G01 X52.4841 Y15.7971
G01 X52.4884 Y15.7888
G01 X52.4933 Y15.7808
G01 X52.4987 Y15.7733
G01 X52.5048 Y15.7661
G01 X52.5159 Y15.7553
G01 X52.5232 Y15.7494
G01 X52.5309 Y15.7442
G01 X52.5389 Y15.7395
G01 X52.5473 Y15.7354
G01 X52.5560 Y15.7319
G01 X52.5649 Y15.7291
G01 X52.5801 Y15.7259
G01 X52.5894 Y15.7248
G01 X52.5987 Y15.7245
G01 X53.0967 Y15.7245
G01 X53.0967 Y12.4781
G01 X52.7487 Y12.4781
G01 X52.7363 Y12.4775
G01 X52.7240 Y12.4757
G01 X52.7149 Y12.4735
G01 X52.7060 Y12.4707
G01 X52.6973 Y12.4672
G01 X52.6889 Y12.4631
G01 X52.6809 Y12.4584
G01 X52.6732 Y12.4531
G01 X52.6613 Y12.4431
G01 X52.6507 Y12.4317
G01 X52.6450 Y12.4243
G01 X52.6399 Y12.4165
G01 X52.6354 Y12.4083
G01 X52.6316 Y12.3998
G01 X52.6283 Y12.3911
G01 X52.6257 Y12.3821
G01 X52.6229 Y12.3668
G01 X52.6219 Y12.3513
G01 X52.6219 Y10.6513
G01 X52.6223 Y10.6420
G01 X52.6233 Y10.6327
G01 X52.6250 Y10.6235
G01 X52.6274 Y10.6145
G01 X52.6316 Y10.6028
G01 X52.6354 Y10.5943
G01 X52.6399 Y10.5861
G01 X52.6450 Y10.5783
G01 X52.6507 Y10.5709
G01 X52.6569 Y10.5639
G01 X52.6636 Y10.5573
G01 X52.6707 Y10.5513
G01 X52.6783 Y10.5459
G01 X52.6862 Y10.5410
G01 X52.6945 Y10.5367
G01 X52.7031 Y10.5330
G01 X52.7119 Y10.5300
G01 X52.7209 Y10.5276
G01 X52.7301 Y10.5259
G01 X52.7425 Y10.5246
G01 X54.4518 Y10.5245
G01 X54.4642 Y10.5254
G01 X54.4734 Y10.5269
G01 X54.4855 Y10.5300
G01 X54.4972 Y10.5341
G01 X54.5085 Y10.5395
G01 X54.5192 Y10.5459
G01 X54.5291 Y10.5533
G01 X54.5384 Y10.5616
G01 X54.5467 Y10.5709
G01 X54.5541 Y10.5808
G01 X54.5605 Y10.5915
G01 X54.5659 Y10.6028
G01 X54.5700 Y10.6145
G01 X54.5731 Y10.6266
G01 X54.5749 Y10.6389
G01 X54.5755 Y10.6513
G00 Z2.0000
G00 X55.3255 Y18.8513
G01 F60.00
G01 Z-0.1000
G01 F120.00
G01 X55.3255 Y20.3513
G01 X55.3252 Y20.3606
G01 X55.3241 Y20.3699
G01 X55.3209 Y20.3851
G01 X55.3159 Y20.3998
G01 X55.3090 Y20.4138
G01 X55.3006 Y20.4268
G01 X55.2905 Y20.4387
G01 X55.2791 Y20.4493
G01 X55.2665 Y20.4584
G01 X55.2529 Y20.4659
G01 X55.2385 Y20.4717
G01 X55.2234 Y20.4757
G01 X55.2080 Y20.4777
G01 X55.1987 Y20.4781
G01 X54.4007 Y20.4781
G01 X54.4007 Y35.7245
G01 X55.1987 Y35.7245
G01 X55.2080 Y35.7248
G01 X55.2234 Y35.7269
G01 X55.2385 Y35.7309
G01 X55.2529 Y35.7367
G01 X55.2665 Y35.7442
G01 X55.2791 Y35.7533
G01 X55.2905 Y35.7639
G01 X55.3006 Y35.7758
G01 X55.3090 Y35.7888
G01 X55.3159 Y35.8028
G01 X55.3209 Y35.8175
G01 X55.3241 Y35.8327
G01 X55.3252 Y35.8420
G01 X55.3255 Y35.8513
G01 X55.3255 Y37.3513
G01 X55.3252 Y37.3606
G01 X55.3241 Y37.3699
G01 X55.3224 Y37.3791
G01 X55.3191 Y37.3911
G01 X55.3146 Y37.4027
G01 X55.3105 Y37.4111
G01 X55.3058 Y37.4191
G01 X55.2987 Y37.4293
G01 X55.2927 Y37.4364
G01 X55.2839 Y37.4452
G01 X55.2742 Y37.4531
G01 X55.2665 Y37.4584
G01 X55.2585 Y37.4631
G01 X55.2472 Y37.4684
G01 X55.2385 Y37.4717
G01 X55.2265 Y37.4750
G01 X55.2142 Y37.4771
G01 X55.2049 Y37.4779
G01 X52.5987 Y37.4781
G01 X52.5894 Y37.4777
G01 X52.5801 Y37.4767
G01 X52.5679 Y37.4743
G01 X52.5589 Y37.4717
G01 X52.5502 Y37.4684
G01 X52.5389 Y37.4631
G01 X52.5283 Y37.4567
G01 X52.5207 Y37.4513
G01 X52.5113 Y37.4431
G01 X52.5048 Y37.4364
G01 X52.4969 Y37.4268
G01 X52.4916 Y37.4191
G01 X52.4854 Y37.4083
G01 X52.4816 Y37.3998
G01 X52.4783 Y37.3911
G01 X52.4750 Y37.3791
G01 X52.4733 Y37.3699
G01 X52.4721 Y37.3575
G01 X52.4719 Y35.8513
G01 X52.4725 Y35.8389
G01 X52.4750 Y35.8235
G01 X52.4793 Y35.8086
G01 X52.4841 Y35.7971
G01 X52.4884 Y35.7888
G01 X52.4933 Y35.7808
G01 X52.5027 Y35.7685
G01 X52.5136 Y35.7573
G01 X52.5207 Y35.7513
G01 X52.5283 Y35.7459
G01 X52.5417 Y35.7380
G01 X52.5560 Y35.7319
G01 X52.5649 Y35.7291
G01 X52.5740 Y35.7269
G01 X52.5894 Y35.7248
G01 X52.5987 Y35.7245
G01 X53.3967 Y35.7245
G01 X53.3967 Y20.4781
G01 X52.5987 Y20.4781
G01 X52.5894 Y20.4777
G01 X52.5740 Y20.4757
G01 X52.5589 Y20.4717
G01 X52.5445 Y20.4659
G01 X52.5309 Y20.4584
G01 X52.5183 Y20.4493
G01 X52.5069 Y20.4387
G01 X52.4969 Y20.4268
G01 X52.4884 Y20.4138
G01 X52.4816 Y20.3998
G01 X52.4765 Y20.3851
G01 X52.4733 Y20.3699
G01 X52.4723 Y20.3606
G01 X52.4719 Y20.3513
G01 X52.4719 Y18.8513
G01 X52.4723 Y18.8420
G01 X52.4733 Y18.8327
G01 X52.4757 Y18.8205
G01 X52.4783 Y18.8115
G01 X52.4828 Y18.7999
G01 X52.4869 Y18.7915
G01 X52.4916 Y18.7835
G01 X52.4987 Y18.7733
G01 X52.5048 Y18.7661
G01 X52.5136 Y18.7573
G01 X52.5232 Y18.7494
G01 X52.5309 Y18.7442
G01 X52.5417 Y18.7380
G01 X52.5502 Y18.7341
G01 X52.5589 Y18.7309
G01 X52.5709 Y18.7276
G01 X52.5832 Y18.7254
G01 X52.5925 Y18.7246
G01 X55.1987 Y18.7245
G01 X55.2111 Y18.7251
G01 X55.2234 Y18.7269
G01 X55.2355 Y18.7300
G01 X55.2472 Y18.7341
G01 X55.2585 Y18.7395
G01 X55.2692 Y18.7459
G01 X55.2791 Y18.7533
G01 X55.2884 Y18.7616
G01 X55.2967 Y18.7709
G01 X55.3041 Y18.7808
G01 X55.3105 Y18.7915
G01 X55.3159 Y18.8028
G01 X55.3200 Y18.8145
G01 X55.3231 Y18.8266
G01 X55.3249 Y18.8389
G01 X55.3255 Y18.8513
G00 Z2.0000
G00 X75.3255 Y18.8513
G01 F60.00
G01 Z-0.1000
G01 F120.00
G01 X75.3255 Y20.3513
G01 X75.3246 Y20.3668
G01 X75.3217 Y20.3821
G01 X75.3191 Y20.3911
G01 X75.3159 Y20.3998
G01 X75.3090 Y20.4138
G01 X75.3006 Y20.4268
G01 X75.2905 Y20.4387
G01 X75.2791 Y20.4493
G01 X75.2665 Y20.4584
G01 X75.2529 Y20.4659
G01 X75.2385 Y20.4717
G01 X75.2234 Y20.4757
G01 X75.2080 Y20.4777
G01 X75.1987 Y20.4781
G01 X74.4007 Y20.4781
G01 X74.4007 Y35.7245
G01 X75.1987 Y35.7245
G01 X75.2080 Y35.7248
G01 X75.2234 Y35.7269
G01 X75.2385 Y35.7309
G01 X75.2529 Y35.7367
G01 X75.2665 Y35.7442
G01 X75.2791 Y35.7533
G01 X75.2905 Y35.7639
G01 X75.3006 Y35.7758
G01 X75.3090 Y35.7888
G01 X75.3133 Y35.7971
G01 X75.3170 Y35.8057
G01 X75.3217 Y35.8205
G01 X75.3246 Y35.8358
G01 X75.3255 Y35.8513
G01 X75.3255 Y37.3513
G01 X75.3252 Y37.3606
G01 X75.3241 Y37.3699
G01 X75.3217 Y37.3821
G01 X75.3191 Y37.3911
G01 X75.3159 Y37.3998
G01 X75.3105 Y37.4111
G01 X75.3041 Y37.4217
G01 X75.2987 Y37.4293
G01 X75.2927 Y37.4364
G01 X75.2839 Y37.4452
G01 X75.2767 Y37.4513
G01 X75.2665 Y37.4584
G01 X75.2557 Y37.4646
G01 X75.2472 Y37.4684
G01 X75.2385 Y37.4717
G01 X75.2265 Y37.4750
G01 X75.2142 Y37.4771
G01 X75.2049 Y37.4779
G01 X72.5987 Y37.4781
G01 X72.5894 Y37.4777
G01 X72.5801 Y37.4767
G01 X72.5709 Y37.4750
G01 X72.5589 Y37.4717
G01 X72.5473 Y37.4672
G01 X72.5389 Y37.4631
G01 X72.5309 Y37.4584
G01 X72.5207 Y37.4513
G01 X72.5113 Y37.4431
G01 X72.5048 Y37.4364
G01 X72.4969 Y37.4268
G01 X72.4916 Y37.4191
G01 X72.4869 Y37.4111
G01 X72.4816 Y37.3998
G01 X72.4774 Y37.3881
G01 X72.4750 Y37.3791
G01 X72.4729 Y37.3668
G01 X72.4721 Y37.3575
G01 X72.4719 Y35.8513
G01 X72.4729 Y35.8358
G01 X72.4750 Y35.8235
G01 X72.4783 Y35.8115
G01 X72.4841 Y35.7971
G01 X72.4884 Y35.7888
G01 X72.4933 Y35.7808
G01 X72.5027 Y35.7685
G01 X72.5136 Y35.7573
G01 X72.5207 Y35.7513
G01 X72.5283 Y35.7459
G01 X72.5417 Y35.7380
G01 X72.5560 Y35.7319
G01 X72.5709 Y35.7276
G01 X72.5801 Y35.7259
G01 X72.5894 Y35.7248
G01 X72.5987 Y35.7245
G01 X73.3967 Y35.7245
G01 X73.3967 Y20.4781
G01 X72.5987 Y20.4781
G01 X72.5894 Y20.4777
G01 X72.5740 Y20.4757
G01 X72.5589 Y20.4717
G01 X72.5445 Y20.4659
G01 X72.5309 Y20.4584
G01 X72.5183 Y20.4493
G01 X72.5069 Y20.4387
G01 X72.4969 Y20.4268
G01 X72.4884 Y20.4138
G01 X72.4841 Y20.4055
G01 X72.4804 Y20.3969
G01 X72.4757 Y20.3821
G01 X72.4729 Y20.3668
G01 X72.4719 Y20.3513
G01 X72.4719 Y18.8513
G01 X72.4723 Y18.8420
G01 X72.4733 Y18.8327
G01 X72.4750 Y18.8235
G01 X72.4783 Y18.8115
G01 X72.4828 Y18.7999
G01 X72.4869 Y18.7915
G01 X72.4916 Y18.7835
G01 X72.4987 Y18.7733
G01 X72.5048 Y18.7661
G01 X72.5136 Y18.7573
G01 X72.5232 Y18.7494
G01 X72.5309 Y18.7442
G01 X72.5417 Y18.7380
G01 X72.5502 Y18.7341
G01 X72.5589 Y18.7309
G01 X72.5709 Y18.7276
G01 X72.5832 Y18.7254
G01 X72.5925 Y18.7246
G01 X75.1987 Y18.7245
G01 X75.2111 Y18.7251
G01 X75.2234 Y18.7269
G01 X75.2355 Y18.7300
G01 X75.2472 Y18.7341
G01 X75.2585 Y18.7395
G01 X75.2692 Y18.7459
G01 X75.2791 Y18.7533
G01 X75.2884 Y18.7616
G01 X75.2967 Y18.7709
G01 X75.3041 Y18.7808
G01 X75.3105 Y18.7915
G01 X75.3159 Y18.8028
G01 X75.3200 Y18.8145
G01 X75.3231 Y18.8266
G01 X75.3249 Y18.8389
G01 X75.3255 Y18.8513
G00 Z2.0000
G00 X76.3754 Y12.4479
G01 F60.00
G01 Z-0.1000
G01 F120.00
G01 X76.3353 Y12.4580
G01 X76.3262 Y12.4599
G01 X76.2375 Y12.4730
G01 X76.2282 Y12.4738
G01 X76.1418 Y12.4781
G01 X76.1325 Y12.4779
G01 X76.0430 Y12.4734
G01 X75.9512 Y12.4599
G01 X75.9421 Y12.4580
G01 X75.8552 Y12.4360
G01 X75.7649 Y12.4037
G01 X75.6782 Y12.3628
G01 X75.5986 Y12.3152
G01 X75.5909 Y12.3099
G01 X75.5190 Y12.2564
G01 X75.4480 Y12.1920
G01 X75.3836 Y12.1210
G01 X75.3265 Y12.0440
G01 X75.2772 Y11.9618
G01 X75.2363 Y11.8751
G01 X75.2040 Y11.7848
G01 X75.1813 Y11.6949
G01 X75.1796 Y11.6857
G01 X75.1666 Y11.5970
G01 X75.1619 Y11.5013
G01 X75.1666 Y11.4055
G01 X75.1807 Y11.3107
G01 X75.2040 Y11.2177
G01 X75.2363 Y11.1275
G01 X75.2772 Y11.0408
G01 X75.3265 Y10.9586
G01 X75.3836 Y10.8816
G01 X75.4480 Y10.8106
G01 X75.5190 Y10.7462
G01 X75.5960 Y10.6891
G01 X75.6782 Y10.6398
G01 X75.7649 Y10.5988
G01 X75.8552 Y10.5666
G01 X75.9451 Y10.5439
G01 X75.9543 Y10.5422
G01 X76.0368 Y10.5300
G01 X76.0492 Y10.5287
G01 X76.1387 Y10.5245
G01 X76.2282 Y10.5287
G01 X76.2406 Y10.5300
G01 X76.3293 Y10.5433
G01 X76.4163 Y10.5649
G01 X76.4282 Y10.5685
G01 X76.5125 Y10.5988
G01 X76.5936 Y10.6370
G01 X76.6046 Y10.6429
G01 X76.6814 Y10.6891
G01 X76.7535 Y10.7424
G01 X76.7631 Y10.7503
G01 X76.8294 Y10.8106
G01 X76.8897 Y10.8769
G01 X76.8976 Y10.8865
G01 X76.9509 Y10.9586
G01 X76.9971 Y11.0354
G01 X77.0030 Y11.0464
G01 X77.0412 Y11.1275
G01 X77.0715 Y11.2118
G01 X77.0751 Y11.2237
G01 X77.0961 Y11.3077
G01 X77.0978 Y11.3169
G01 X77.1108 Y11.4055
G01 X77.1154 Y11.4951
G01 X77.1155 Y11.5044
G01 X77.1113 Y11.5908
G01 X77.1105 Y11.6001
G01 X77.0973 Y11.6888
G01 X77.0954 Y11.6979
G01 X77.0853 Y11.7380
G01 X78.2537 Y12.9063
G01 X78.2847 Y12.9405
G01 X78.2906 Y12.9477
G01 X78.3161 Y12.9824
G01 X78.3384 Y13.0192
G01 X78.3429 Y13.0274
G01 X78.3600 Y13.0635
G01 X78.3647 Y13.0750
G01 X78.3791 Y13.1156
G01 X78.3911 Y13.1634
G01 X78.3983 Y13.2121
G01 X78.4007 Y13.2582
G01 X78.4007 Y78.1013
G01 X78.3987 Y78.1443
G01 X78.3975 Y78.1567
G01 X78.3916 Y78.1962
G01 X78.3897 Y78.2053
G01 X78.3807 Y78.2410
G01 X78.3771 Y78.2529
G01 X78.3636 Y78.2905
G01 X78.3600 Y78.2991
G01 X78.3414 Y78.3379
G01 X78.3161 Y78.3802
G01 X78.2868 Y78.4197
G01 X78.2558 Y78.4540
G01 X76.7514 Y79.9584
G01 X76.7172 Y79.9893
G01 X76.6776 Y80.0187
G01 X76.6353 Y80.0440
G01 X76.5908 Y80.0651
G01 X76.5444 Y80.0817
G01 X76.4966 Y80.0936
G01 X76.4479 Y80.1009
G01 X76.4018 Y80.1032
G01 X75.3255 Y80.1033
G01 X75.3255 Y80.3544
G01 X75.3241 Y80.3699
G01 X75.3224 Y80.3791
G01 X75.3200 Y80.3881
G01 X75.3170 Y80.3969
G01 X75.3133 Y80.4055
G01 X75.3090 Y80.4138
G01 X75.3041 Y80.4217
G01 X75.2987 Y80.4293
G01 X75.2927 Y80.4364
G01 X75.2861 Y80.4431
G01 X75.2791 Y80.4493
G01 X75.2717 Y80.4550
G01 X75.2639 Y80.4601
G01 X75.2557 Y80.4646
G01 X75.2472 Y80.4684
G01 X75.2385 Y80.4717
G01 X75.2295 Y80.4743
G01 X75.2204 Y80.4762
G01 X75.2111 Y80.4775
G01 X75.1987 Y80.4781
G01 X72.5925 Y80.4779
G01 X72.5801 Y80.4767
G01 X72.5679 Y80.4743
G01 X72.5560 Y80.4707
G01 X72.5473 Y80.4672
G01 X72.5362 Y80.4616
G01 X72.5283 Y80.4567
G01 X72.5183 Y80.4493
G01 X72.5090 Y80.4410
G01 X72.5027 Y80.4341
G01 X72.4950 Y80.4243
G01 X72.4884 Y80.4138
G01 X72.4828 Y80.4027
G01 X72.4783 Y80.3911
G01 X72.4750 Y80.3791
G01 X72.4729 Y80.3668
G01 X72.4719 Y80.3544
G01 X72.4721 Y78.8451
G01 X72.4729 Y78.8358
G01 X72.4743 Y78.8266
G01 X72.4783 Y78.8115
G01 X72.4841 Y78.7971
G01 X72.4916 Y78.7835
G01 X72.5007 Y78.7709
G01 X72.5069 Y78.7639
G01 X72.5136 Y78.7573
G01 X72.5257 Y78.7476
G01 X72.5389 Y78.7395
G01 X72.5531 Y78.7330
G01 X72.5679 Y78.7283
G01 X72.5832 Y78.7254
G01 X72.5987 Y78.7245
G01 X75.1987 Y78.7245
G01 X75.2111 Y78.7251
G01 X75.2204 Y78.7264
G01 X75.2295 Y78.7283
G01 X75.2385 Y78.7309
G01 X75.2472 Y78.7341
G01 X75.2557 Y78.7380
G01 X75.2639 Y78.7425
G01 X75.2717 Y78.7476
G01 X75.2791 Y78.7533
G01 X75.2861 Y78.7595
G01 X75.2927 Y78.7661
G01 X75.2987 Y78.7733
G01 X75.3041 Y78.7808
G01 X75.3090 Y78.7888
G01 X75.3133 Y78.7971
G01 X75.3170 Y78.8057
G01 X75.3200 Y78.8145
G01 X75.3224 Y78.8235
G01 X75.3241 Y78.8327
G01 X75.3255 Y78.8482
G01 X75.3255 Y79.0993
G01 X76.1908 Y79.0993
G01 X77.3967 Y77.8934
G01 X77.3967 Y13.4692
G01 X76.3754 Y12.4479
G00 Z2.0000
G00 X74.5755 Y10.6513
G01 F60.00
G01 Z-0.1000
G01 F120.00
G01 X74.5755 Y12.3513
G01 X74.5746 Y12.3668
G01 X74.5717 Y12.3821
G01 X74.5691 Y12.3911
G01 X74.5659 Y12.3998
G01 X74.5620 Y12.4083
G01 X74.5575 Y12.4165
G01 X74.5524 Y12.4243
G01 X74.5467 Y12.4317
G01 X74.5361 Y12.4431
G01 X74.5291 Y12.4493
G01 X74.5217 Y12.4550
G01 X74.5139 Y12.4601
G01 X74.5057 Y12.4646
G01 X74.4914 Y12.4707
G01 X74.4825 Y12.4735
G01 X74.4734 Y12.4757
G01 X74.4611 Y12.4775
G01 X74.4487 Y12.4781
G01 X74.1007 Y12.4781
G01 X74.1007 Y15.7245
G01 X75.2049 Y15.7246
G01 X75.2204 Y15.7264
G01 X75.2325 Y15.7291
G01 X75.2443 Y15.7330
G01 X75.2585 Y15.7395
G01 X75.2692 Y15.7459
G01 X75.2815 Y15.7553
G01 X75.2905 Y15.7639
G01 X75.3006 Y15.7758
G01 X75.3075 Y15.7861
G01 X75.3120 Y15.7943
G01 X75.3159 Y15.8028
G01 X75.3191 Y15.8115
G01 X75.3217 Y15.8205
G01 X75.3241 Y15.8327
G01 X75.3252 Y15.8420
G01 X75.3255 Y15.8513
G01 X75.3255 Y17.3513
G01 X75.3252 Y17.3606
G01 X75.3241 Y17.3699
G01 X75.3224 Y17.3791
G01 X75.3200 Y17.3881
G01 X75.3170 Y17.3969
G01 X75.3133 Y17.4055
G01 X75.3090 Y17.4138
G01 X75.3024 Y17.4243
G01 X75.2967 Y17.4317
G01 X75.2905 Y17.4387
G01 X75.2839 Y17.4452
G01 X75.2742 Y17.4531
G01 X75.2639 Y17.4601
G01 X75.2557 Y17.4646
G01 X75.2472 Y17.4684
G01 X75.2385 Y17.4717
G01 X75.2295 Y17.4743
G01 X75.2204 Y17.4762
G01 X75.2111 Y17.4775
G01 X75.2018 Y17.4781
G01 X72.5987 Y17.4781
G01 X72.5894 Y17.4777
G01 X72.5801 Y17.4767
G01 X72.5709 Y17.4750
G01 X72.5619 Y17.4726
G01 X72.5531 Y17.4696
G01 X72.5445 Y17.4659
G01 X72.5362 Y17.4616
G01 X72.5257 Y17.4550
G01 X72.5183 Y17.4493
G01 X72.5113 Y17.4431
G01 X72.5048 Y17.4364
G01 X72.4987 Y17.4293
G01 X72.4933 Y17.4217
G01 X72.4869 Y17.4111
G01 X72.4828 Y17.4027
G01 X72.4793 Y17.3940
G01 X72.4765 Y17.3851
G01 X72.4743 Y17.3760
G01 X72.4729 Y17.3668
G01 X72.4721 Y17.3575
G01 X72.4719 Y15.8513
G01 X72.4723 Y15.8420
G01 X72.4733 Y15.8327
G01 X72.4750 Y15.8235
G01 X72.4774 Y15.8145
G01 X72.4804 Y15.8057
G01 X72.4841 Y15.7971
G01 X72.4884 Y15.7888
G01 X72.4933 Y15.7808
G01 X72.5027 Y15.7685
G01 X72.5090 Y15.7616
G01 X72.5159 Y15.7553
G01 X72.5232 Y15.7494
G01 X72.5309 Y15.7442
G01 X72.5389 Y15.7395
G01 X72.5473 Y15.7354
G01 X72.5560 Y15.7319
G01 X72.5649 Y15.7291
G01 X72.5801 Y15.7259
G01 X72.5894 Y15.7248
G01 X72.5987 Y15.7245
G01 X73.0967 Y15.7245
G01 X73.0967 Y12.4781
G01 X72.7487 Y12.4781
G01 X72.7363 Y12.4775
G01 X72.7240 Y12.4757
G01 X72.7089 Y12.4717
G01 X72.7002 Y12.4684
G01 X72.6917 Y12.4646
G01 X72.6835 Y12.4601
G01 X72.6757 Y12.4550
G01 X72.6683 Y12.4493
G01 X72.6613 Y12.4431
G01 X72.6507 Y12.4317
G01 X72.6450 Y12.4243
G01 X72.6399 Y12.4165
G01 X72.6354 Y12.4083
G01 X72.6316 Y12.3998
G01 X72.6283 Y12.3911
G01 X72.6257 Y12.3821
G01 X72.6229 Y12.3668
G01 X72.6219 Y12.3513
G01 X72.6219 Y10.6513
G01 X72.6223 Y10.6420
G01 X72.6233 Y10.6327
G01 X72.6250 Y10.6235
G01 X72.6274 Y10.6145
G01 X72.6304 Y10.6057
G01 X72.6341 Y10.5971
G01 X72.6384 Y10.5888
G01 X72.6433 Y10.5808
G01 X72.6487 Y10.5733
G01 X72.6569 Y10.5639
G01 X72.6636 Y10.5573
G01 X72.6707 Y10.5513
G01 X72.6783 Y10.5459
G01 X72.6862 Y10.5410
G01 X72.6945 Y10.5367
G01 X72.7031 Y10.5330
G01 X72.7149 Y10.5291
G01 X72.7240 Y10.5269
G01 X72.7332 Y10.5254
G01 X72.7425 Y10.5246
G01 X74.4518 Y10.5245
G01 X74.4642 Y10.5254
G01 X74.4765 Y10.5276
G01 X74.4885 Y10.5309
G01 X74.5001 Y10.5354
G01 X74.5112 Y10.5410
G01 X74.5217 Y10.5476
G01 X74.5315 Y10.5553
G01 X74.5405 Y10.5639
G01 X74.5487 Y10.5733
G01 X74.5558 Y10.5835
G01 X74.5620 Y10.5943
G01 X74.5670 Y10.6057
G01 X74.5700 Y10.6145
G01 X74.5731 Y10.6266
G01 X74.5749 Y10.6389
G01 X74.5755 Y10.6513
G00 Z2.0000
G00 X75.3255 Y38.8513
G01 F60.00
G01 Z-0.1000
G01 F120.00
G01 X75.3255 Y40.3513
G01 X75.3246 Y40.3668
G01 X75.3217 Y40.3821
G01 X75.3191 Y40.3911
G01 X75.3159 Y40.3998
G01 X75.3090 Y40.4138
G01 X75.3006 Y40.4268
G01 X75.2905 Y40.4387
G01 X75.2791 Y40.4493
G01 X75.2665 Y40.4584
G01 X75.2529 Y40.4659
G01 X75.2385 Y40.4717
G01 X75.2234 Y40.4757
G01 X75.2080 Y40.4777
G01 X75.1987 Y40.4781
G01 X74.4007 Y40.4781
G01 X74.4007 Y55.7245
G01 X75.1987 Y55.7245
G01 X75.2080 Y55.7248
G01 X75.2234 Y55.7269
G01 X75.2385 Y55.7309
G01 X75.2529 Y55.7367
G01 X75.2665 Y55.7442
G01 X75.2791 Y55.7533
G01 X75.2905 Y55.7639
G01 X75.3006 Y55.7758
G01 X75.3090 Y55.7888
G01 X75.3133 Y55.7971
G01 X75.3170 Y55.8057
G01 X75.3217 Y55.8205
G01 X75.3246 Y55.8358
G01 X75.3255 Y55.8513
G01 X75.3255 Y57.3513
G01 X75.3252 Y57.3606
G01 X75.3241 Y57.3699
G01 X75.3217 Y57.3821
G01 X75.3191 Y57.3911
G01 X75.3159 Y57.3998
G01 X75.3105 Y57.4111
G01 X75.3041 Y57.4217
G01 X75.2987 Y57.4293
G01 X75.2927 Y57.4364
G01 X75.2839 Y57.4452
G01 X75.2767 Y57.4513
G01 X75.2665 Y57.4584
G01 X75.2557 Y57.4646
G01 X75.2472 Y57.4684
G01 X75.2385 Y57.4717
G01 X75.2265 Y57.4750
G01 X75.2142 Y57.4771
G01 X75.2049 Y57.4779
G01 X72.5987 Y57.4781
G01 X72.5894 Y57.4777
G01 X72.5801 Y57.4767
G01 X72.5709 Y57.4750
G01 X72.5589 Y57.4717
G01 X72.5473 Y57.4672
G01 X72.5389 Y57.4631
G01 X72.5309 Y57.4584
G01 X72.5207 Y57.4513
G01 X72.5113 Y57.4431
G01 X72.5048 Y57.4364
G01 X72.4969 Y57.4268
G01 X72.4916 Y57.4191
G01 X72.4869 Y57.4111
G01 X72.4816 Y57.3998
G01 X72.4774 Y57.3881
G01 X72.4750 Y57.3791
G01 X72.4729 Y57.3668
G01 X72.4721 Y57.3575
G01 X72.4719 Y55.8513
G01 X72.4729 Y55.8358
G01 X72.4750 Y55.8235
G01 X72.4783 Y55.8115
G01 X72.4841 Y55.7971
G01 X72.4884 Y55.7888
G01 X72.4933 Y55.7808
G01 X72.5027 Y55.7685
G01 X72.5136 Y55.7573
G01 X72.5207 Y55.7513
G01 X72.5283 Y55.7459
G01 X72.5417 Y55.7380
G01 X72.5560 Y55.7319
G01 X72.5709 Y55.7276
G01 X72.5801 Y55.7259
G01 X72.5894 Y55.7248
G01 X72.5987 Y55.7245
G01 X73.3967 Y55.7245
G01 X73.3967 Y40.4781
G01 X72.5987 Y40.4781
G01 X72.5894 Y40.4777
G01 X72.5740 Y40.4757
G01 X72.5589 Y40.4717
G01 X72.5445 Y40.4659
G01 X72.5309 Y40.4584
G01 X72.5183 Y40.4493
G01 X72.5069 Y40.4387
G01 X72.4969 Y40.4268
G01 X72.4884 Y40.4138
G01 X72.4841 Y40.4055
G01 X72.4804 Y40.3969
G01 X72.4757 Y40.3821
G01 X72.4729 Y40.3668
G01 X72.4719 Y40.3513
G01 X72.4719 Y38.8513
G01 X72.4723 Y38.8420
G01 X72.4733 Y38.8327
G01 X72.4757 Y38.8205
G01 X72.4783 Y38.8115
G01 X72.4828 Y38.7999
G01 X72.4869 Y38.7915
G01 X72.4933 Y38.7808
G01 X72.4987 Y38.7733
G01 X72.5069 Y38.7639
G01 X72.5136 Y38.7573
G01 X72.5232 Y38.7494
G01 X72.5309 Y38.7442
G01 X72.5389 Y38.7395
G01 X72.5502 Y38.7341
G01 X72.5619 Y38.7300
G01 X72.5709 Y38.7276
G01 X72.5832 Y38.7254
G01 X72.5925 Y38.7246
G01 X75.1987 Y38.7245
G01 X75.2111 Y38.7251
G01 X75.2234 Y38.7269
G01 X75.2355 Y38.7300
G01 X75.2472 Y38.7341
G01 X75.2585 Y38.7395
G01 X75.2692 Y38.7459
G01 X75.2791 Y38.7533
G01 X75.2884 Y38.7616
G01 X75.2967 Y38.7709
G01 X75.3041 Y38.7808
G01 X75.3105 Y38.7915
G01 X75.3159 Y38.8028
G01 X75.3200 Y38.8145
G01 X75.3231 Y38.8266
G01 X75.3249 Y38.8389
G01 X75.3255 Y38.8513
G00 Z2.0000
G00 X75.3255 Y58.8513
G01 F60.00
G01 Z-0.1000
G01 F120.00
G01 X75.3255 Y60.3513
G01 X75.3246 Y60.3668
G01 X75.3217 Y60.3821
G01 X75.3191 Y60.3911
G01 X75.3159 Y60.3998
G01 X75.3090 Y60.4138
G01 X75.3006 Y60.4268
G01 X75.2905 Y60.4387
G01 X75.2791 Y60.4493
G01 X75.2665 Y60.4584
G01 X75.2529 Y60.4659
G01 X75.2385 Y60.4717
G01 X75.2234 Y60.4757
G01 X75.2080 Y60.4777
G01 X75.1987 Y60.4781
G01 X74.4007 Y60.4781
G01 X74.4007 Y75.7245
G01 X75.1987 Y75.7245
G01 X75.2080 Y75.7248
G01 X75.2234 Y75.7269
G01 X75.2385 Y75.7309
G01 X75.2529 Y75.7367
G01 X75.2665 Y75.7442
G01 X75.2791 Y75.7533
G01 X75.2905 Y75.7639
G01 X75.3006 Y75.7758
G01 X75.3090 Y75.7888
G01 X75.3133 Y75.7971
G01 X75.3170 Y75.8057
G01 X75.3217 Y75.8205
G01 X75.3246 Y75.8358
G01 X75.3255 Y75.8513
G01 X75.3255 Y77.3513
G01 X75.3252 Y77.3606
G01 X75.3241 Y77.3699
G01 X75.3217 Y77.3821
G01 X75.3191 Y77.3911
G01 X75.3159 Y77.3998
G01 X75.3105 Y77.4111
G01 X75.3041 Y77.4217
G01 X75.2987 Y77.4293
G01 X75.2927 Y77.4364
G01 X75.2839 Y77.4452
G01 X75.2742 Y77.4531
G01 X75.2665 Y77.4584
G01 X75.2585 Y77.4631
G01 X75.2472 Y77.4684
G01 X75.2355 Y77.4726
G01 X75.2265 Y77.4750
G01 X75.2142 Y77.4771
G01 X75.2049 Y77.4779
G01 X72.5987 Y77.4781
G01 X72.5894 Y77.4777
G01 X72.5801 Y77.4767
G01 X72.5679 Y77.4743
G01 X72.5589 Y77.4717
G01 X72.5502 Y77.4684
G01 X72.5389 Y77.4631
G01 X72.5283 Y77.4567
G01 X72.5207 Y77.4513
G01 X72.5136 Y77.4452
G01 X72.5048 Y77.4364
G01 X72.4969 Y77.4268
G01 X72.4916 Y77.4191
G01 X72.4854 Y77.4083
G01 X72.4816 Y77.3998
G01 X72.4774 Y77.3881
G01 X72.4750 Y77.3791
G01 X72.4733 Y77.3699
G01 X72.4721 Y77.3575
G01 X72.4719 Y75.8513
G01 X72.4729 Y75.8358
G01 X72.4750 Y75.8235
G01 X72.4783 Y75.8115
G01 X72.4841 Y75.7971
G01 X72.4916 Y75.7835
G01 X72.5007 Y75.7709
G01 X72.5069 Y75.7639
G01 X72.5136 Y75.7573
G01 X72.5257 Y75.7476
G01 X72.5389 Y75.7395
G01 X72.5473 Y75.7354
G01 X72.5560 Y75.7319
G01 X72.5709 Y75.7276
G01 X72.5801 Y75.7259
G01 X72.5894 Y75.7248
G01 X72.5987 Y75.7245
G01 X73.3967 Y75.7245
G01 X73.3967 Y60.4781
G01 X72.5987 Y60.4781
G01 X72.5894 Y60.4777
G01 X72.5740 Y60.4757
G01 X72.5589 Y60.4717
G01 X72.5445 Y60.4659
G01 X72.5309 Y60.4584
G01 X72.5183 Y60.4493
G01 X72.5069 Y60.4387
G01 X72.4969 Y60.4268
G01 X72.4884 Y60.4138
G01 X72.4841 Y60.4055
G01 X72.4804 Y60.3969
G01 X72.4757 Y60.3821
G01 X72.4729 Y60.3668
G01 X72.4719 Y60.3513
G01 X72.4719 Y58.8513
G01 X72.4723 Y58.8420
G01 X72.4733 Y58.8327
G01 X72.4757 Y58.8205
G01 X72.4783 Y58.8115
G01 X72.4828 Y58.7999
G01 X72.4869 Y58.7915
G01 X72.4933 Y58.7808
G01 X72.4987 Y58.7733
G01 X72.5069 Y58.7639
G01 X72.5136 Y58.7573
G01 X72.5232 Y58.7494
G01 X72.5309 Y58.7442
G01 X72.5389 Y58.7395
G01 X72.5502 Y58.7341
G01 X72.5619 Y58.7300
G01 X72.5709 Y58.7276
G01 X72.5832 Y58.7254
G01 X72.5925 Y58.7246
G01 X75.1987 Y58.7245
G01 X75.2111 Y58.7251
G01 X75.2234 Y58.7269
G01 X75.2355 Y58.7300
G01 X75.2472 Y58.7341
G01 X75.2585 Y58.7395
G01 X75.2692 Y58.7459
G01 X75.2791 Y58.7533
G01 X75.2884 Y58.7616
G01 X75.2967 Y58.7709
G01 X75.3041 Y58.7808
G01 X75.3105 Y58.7915
G01 X75.3159 Y58.8028
G01 X75.3200 Y58.8145
G01 X75.3231 Y58.8266
G01 X75.3249 Y58.8389
G01 X75.3255 Y58.8513
G00 Z2.0000
G00 X55.3255 Y58.8513
G01 F60.00
G01 Z-0.1000
G01 F120.00
G01 X55.3255 Y60.3513
G01 X55.3246 Y60.3668
G01 X55.3217 Y60.3821
G01 X55.3170 Y60.3969
G01 X55.3133 Y60.4055
G01 X55.3090 Y60.4138
G01 X55.3006 Y60.4268
G01 X55.2905 Y60.4387
G01 X55.2791 Y60.4493
G01 X55.2665 Y60.4584
G01 X55.2529 Y60.4659
G01 X55.2385 Y60.4717
G01 X55.2234 Y60.4757
G01 X55.2080 Y60.4777
G01 X55.1987 Y60.4781
G01 X54.4007 Y60.4781
G01 X54.4007 Y75.7245
G01 X55.1987 Y75.7245
G01 X55.2080 Y75.7248
G01 X55.2234 Y75.7269
G01 X55.2385 Y75.7309
G01 X55.2529 Y75.7367
G01 X55.2665 Y75.7442
G01 X55.2791 Y75.7533
G01 X55.2905 Y75.7639
G01 X55.3006 Y75.7758
G01 X55.3090 Y75.7888
G01 X55.3159 Y75.8028
G01 X55.3209 Y75.8175
G01 X55.3231 Y75.8266
G01 X55.3246 Y75.8358
G01 X55.3255 Y75.8513
G01 X55.3255 Y77.3513
G01 X55.3252 Y77.3606
G01 X55.3241 Y77.3699
G01 X55.3217 Y77.3821
G01 X55.3191 Y77.3911
G01 X55.3159 Y77.3998
G01 X55.3105 Y77.4111
G01 X55.3041 Y77.4217
G01 X55.2987 Y77.4293
G01 X55.2927 Y77.4364
G01 X55.2839 Y77.4452
G01 X55.2742 Y77.4531
G01 X55.2665 Y77.4584
G01 X55.2585 Y77.4631
G01 X55.2472 Y77.4684
G01 X55.2355 Y77.4726
G01 X55.2265 Y77.4750
G01 X55.2173 Y77.4767
G01 X55.2049 Y77.4779
G01 X52.5987 Y77.4781
G01 X52.5894 Y77.4777
G01 X52.5801 Y77.4767
G01 X52.5679 Y77.4743
G01 X52.5589 Y77.4717
G01 X52.5473 Y77.4672
G01 X52.5389 Y77.4631
G01 X52.5309 Y77.4584
G01 X52.5207 Y77.4513
G01 X52.5113 Y77.4431
G01 X52.5048 Y77.4364
G01 X52.4987 Y77.4293
G01 X52.4916 Y77.4191
G01 X52.4854 Y77.4083
G01 X52.4816 Y77.3998
G01 X52.4783 Y77.3911
G01 X52.4750 Y77.3791
G01 X52.4729 Y77.3668
G01 X52.4721 Y77.3575
G01 X52.4719 Y75.8513
G01 X52.4729 Y75.8358
G01 X52.4750 Y75.8235
G01 X52.4793 Y75.8086
G01 X52.4841 Y75.7971
G01 X52.4916 Y75.7835
G01 X52.5007 Y75.7709
G01 X52.5069 Y75.7639
G01 X52.5136 Y75.7573
G01 X52.5257 Y75.7476
G01 X52.5335 Y75.7425
G01 X52.5417 Y75.7380
G01 X52.5560 Y75.7319
G01 X52.5709 Y75.7276
G01 X52.5801 Y75.7259
G01 X52.5894 Y75.7248
G01 X52.5987 Y75.7245
G01 X53.3967 Y75.7245
G01 X53.3967 Y60.4781
G01 X52.5987 Y60.4781
G01 X52.5894 Y60.4777
G01 X52.5740 Y60.4757
G01 X52.5589 Y60.4717
G01 X52.5445 Y60.4659
G01 X52.5309 Y60.4584
G01 X52.5183 Y60.4493
G01 X52.5069 Y60.4387
G01 X52.4969 Y60.4268
G01 X52.4884 Y60.4138
G01 X52.4816 Y60.3998
G01 X52.4765 Y60.3851
G01 X52.4733 Y60.3699
G01 X52.4723 Y60.3606
G01 X52.4719 Y60.3513
G01 X52.4719 Y58.8513
G01 X52.4723 Y58.8420
G01 X52.4733 Y58.8327
G01 X52.4757 Y58.8205
G01 X52.4783 Y58.8115
G01 X52.4828 Y58.7999
G01 X52.4869 Y58.7915
G01 X52.4933 Y58.7808
G01 X52.4987 Y58.7733
G01 X52.5069 Y58.7639
G01 X52.5136 Y58.7573
G01 X52.5232 Y58.7494
G01 X52.5309 Y58.7442
G01 X52.5389 Y58.7395
G01 X52.5502 Y58.7341
G01 X52.5619 Y58.7300
G01 X52.5709 Y58.7276
G01 X52.5832 Y58.7254
G01 X52.5925 Y58.7246
G01 X55.1987 Y58.7245
G01 X55.2111 Y58.7251
G01 X55.2234 Y58.7269
G01 X55.2355 Y58.7300
G01 X55.2472 Y58.7341
G01 X55.2585 Y58.7395
G01 X55.2692 Y58.7459
G01 X55.2791 Y58.7533
G01 X55.2884 Y58.7616
G01 X55.2967 Y58.7709
G01 X55.3041 Y58.7808
G01 X55.3105 Y58.7915
G01 X55.3159 Y58.8028
G01 X55.3200 Y58.8145
G01 X55.3231 Y58.8266
G01 X55.3249 Y58.8389
G01 X55.3255 Y58.8513
G00 Z2.0000
G00 X35.3255 Y58.8513
G01 F60.00
G01 Z-0.1000
G01 F120.00
G01 X35.3255 Y60.3513
G01 X35.3246 Y60.3668
G01 X35.3217 Y60.3821
G01 X35.3170 Y60.3969
G01 X35.3133 Y60.4055
G01 X35.3090 Y60.4138
G01 X35.3006 Y60.4268
G01 X35.2905 Y60.4387
G01 X35.2791 Y60.4493
G01 X35.2665 Y60.4584
G01 X35.2529 Y60.4659
G01 X35.2385 Y60.4717
G01 X35.2234 Y60.4757
G01 X35.2080 Y60.4777
G01 X35.1987 Y60.4781
G01 X34.4007 Y60.4781
G01 X34.4007 Y75.7245
G01 X35.1987 Y75.7245
G01 X35.2080 Y75.7248
G01 X35.2234 Y75.7269
G01 X35.2385 Y75.7309
G01 X35.2529 Y75.7367
G01 X35.2665 Y75.7442
G01 X35.2791 Y75.7533
G01 X35.2905 Y75.7639
G01 X35.3006 Y75.7758
G01 X35.3090 Y75.7888
G01 X35.3159 Y75.8028
G01 X35.3209 Y75.8175
G01 X35.3231 Y75.8266
G01 X35.3246 Y75.8358
G01 X35.3255 Y75.8513
G01 X35.3255 Y77.3513
G01 X35.3252 Y77.3606
G01 X35.3241 Y77.3699
G01 X35.3217 Y77.3821
G01 X35.3191 Y77.3911
G01 X35.3159 Y77.3998
G01 X35.3105 Y77.4111
G01 X35.3041 Y77.4217
G01 X35.2987 Y77.4293
G01 X35.2927 Y77.4364
G01 X35.2839 Y77.4452
G01 X35.2742 Y77.4531
G01 X35.2665 Y77.4584
G01 X35.2585 Y77.4631
G01 X35.2472 Y77.4684
G01 X35.2355 Y77.4726
G01 X35.2265 Y77.4750
G01 X35.2173 Y77.4767
G01 X35.2049 Y77.4779
G01 X32.5987 Y77.4781
G01 X32.5894 Y77.4777
G01 X32.5801 Y77.4767
G01 X32.5679 Y77.4743
G01 X32.5589 Y77.4717
G01 X32.5473 Y77.4672
G01 X32.5389 Y77.4631
G01 X32.5309 Y77.4584
G01 X32.5207 Y77.4513
G01 X32.5113 Y77.4431
G01 X32.5048 Y77.4364
G01 X32.4987 Y77.4293
G01 X32.4916 Y77.4191
G01 X32.4854 Y77.4083
G01 X32.4816 Y77.3998
G01 X32.4783 Y77.3911
G01 X32.4750 Y77.3791
G01 X32.4729 Y77.3668
G01 X32.4721 Y77.3575
G01 X32.4719 Y75.8513
G01 X32.4729 Y75.8358
G01 X32.4750 Y75.8235
G01 X32.4793 Y75.8086
G01 X32.4841 Y75.7971
G01 X32.4916 Y75.7835
G01 X32.5007 Y75.7709
G01 X32.5069 Y75.7639
G01 X32.5136 Y75.7573
G01 X32.5257 Y75.7476
G01 X32.5335 Y75.7425
G01 X32.5417 Y75.7380
G01 X32.5560 Y75.7319
G01 X32.5709 Y75.7276
G01 X32.5801 Y75.7259
G01 X32.5894 Y75.7248
G01 X32.5987 Y75.7245
G01 X33.3967 Y75.7245
G01 X33.3967 Y60.4781
G01 X32.5987 Y60.4781
G01 X32.5894 Y60.4777
G01 X32.5740 Y60.4757
G01 X32.5589 Y60.4717
G01 X32.5445 Y60.4659
G01 X32.5309 Y60.4584
G01 X32.5183 Y60.4493
G01 X32.5069 Y60.4387
G01 X32.4969 Y60.4268
G01 X32.4884 Y60.4138
G01 X32.4816 Y60.3998
G01 X32.4765 Y60.3851
G01 X32.4733 Y60.3699
G01 X32.4723 Y60.3606
G01 X32.4719 Y60.3513
G01 X32.4719 Y58.8513
G01 X32.4723 Y58.8420
G01 X32.4733 Y58.8327
G01 X32.4757 Y58.8205
G01 X32.4783 Y58.8115
G01 X32.4828 Y58.7999
G01 X32.4869 Y58.7915
G01 X32.4933 Y58.7808
G01 X32.4987 Y58.7733
G01 X32.5069 Y58.7639
G01 X32.5136 Y58.7573
G01 X32.5232 Y58.7494
G01 X32.5309 Y58.7442
G01 X32.5389 Y58.7395
G01 X32.5502 Y58.7341
G01 X32.5619 Y58.7300
G01 X32.5709 Y58.7276
G01 X32.5832 Y58.7254
G01 X32.5925 Y58.7246
G01 X35.1987 Y58.7245
G01 X35.2111 Y58.7251
G01 X35.2234 Y58.7269
G01 X35.2355 Y58.7300
G01 X35.2472 Y58.7341
G01 X35.2585 Y58.7395
G01 X35.2692 Y58.7459
G01 X35.2791 Y58.7533
G01 X35.2884 Y58.7616
G01 X35.2967 Y58.7709
G01 X35.3041 Y58.7808
G01 X35.3105 Y58.7915
G01 X35.3159 Y58.8028
G01 X35.3200 Y58.8145
G01 X35.3231 Y58.8266
G01 X35.3249 Y58.8389
G01 X35.3255 Y58.8513
G00 Z2.0000
G00 X15.3255 Y58.8513
G01 F60.00
G01 Z-0.1000
G01 F120.00
G01 X15.3255 Y60.3513
G01 X15.3246 Y60.3668
G01 X15.3231 Y60.3760
G01 X15.3209 Y60.3851
G01 X15.3159 Y60.3998
G01 X15.3090 Y60.4138
G01 X15.3006 Y60.4268
G01 X15.2905 Y60.4387
G01 X15.2791 Y60.4493
G01 X15.2665 Y60.4584
G01 X15.2529 Y60.4659
G01 X15.2385 Y60.4717
G01 X15.2234 Y60.4757
G01 X15.2080 Y60.4777
G01 X15.1987 Y60.4781
G01 X14.4007 Y60.4781
G01 X14.4007 Y75.7245
G01 X15.1987 Y75.7245
G01 X15.2080 Y75.7248
G01 X15.2234 Y75.7269
G01 X15.2385 Y75.7309
G01 X15.2529 Y75.7367
G01 X15.2665 Y75.7442
G01 X15.2791 Y75.7533
G01 X15.2905 Y75.7639
G01 X15.3006 Y75.7758
G01 X15.3090 Y75.7888
G01 X15.3159 Y75.8028
G01 X15.3209 Y75.8175
G01 X15.3241 Y75.8327
G01 X15.3252 Y75.8420
G01 X15.3255 Y75.8513
G01 X15.3255 Y77.3513
G01 X15.3252 Y77.3606
G01 X15.3241 Y77.3699
G01 X15.3217 Y77.3821
G01 X15.3191 Y77.3911
G01 X15.3159 Y77.3998
G01 X15.3105 Y77.4111
G01 X15.3041 Y77.4217
G01 X15.2987 Y77.4293
G01 X15.2927 Y77.4364
G01 X15.2839 Y77.4452
G01 X15.2742 Y77.4531
G01 X15.2665 Y77.4584
G01 X15.2585 Y77.4631
G01 X15.2472 Y77.4684
G01 X15.2355 Y77.4726
G01 X15.2265 Y77.4750
G01 X15.2173 Y77.4767
G01 X15.2049 Y77.4779
G01 X12.5987 Y77.4781
G01 X12.5894 Y77.4777
G01 X12.5801 Y77.4767
G01 X12.5679 Y77.4743
G01 X12.5589 Y77.4717
G01 X12.5473 Y77.4672
G01 X12.5389 Y77.4631
G01 X12.5309 Y77.4584
G01 X12.5207 Y77.4513
G01 X12.5113 Y77.4431
G01 X12.5048 Y77.4364
G01 X12.4969 Y77.4268
G01 X12.4916 Y77.4191
G01 X12.4854 Y77.4083
G01 X12.4816 Y77.3998
G01 X12.4774 Y77.3881
G01 X12.4750 Y77.3791
G01 X12.4733 Y77.3699
G01 X12.4721 Y77.3575
G01 X12.4719 Y75.8513
G01 X12.4725 Y75.8389
G01 X12.4750 Y75.8235
G01 X12.4783 Y75.8115
G01 X12.4841 Y75.7971
G01 X12.4916 Y75.7835
G01 X12.5007 Y75.7709
G01 X12.5069 Y75.7639
G01 X12.5136 Y75.7573
G01 X12.5257 Y75.7476
G01 X12.5335 Y75.7425
G01 X12.5417 Y75.7380
G01 X12.5560 Y75.7319
G01 X12.5709 Y75.7276
G01 X12.5801 Y75.7259
G01 X12.5894 Y75.7248
G01 X12.5987 Y75.7245
G01 X13.3967 Y75.7245
G01 X13.3967 Y60.4781
G01 X12.5987 Y60.4781
G01 X12.5894 Y60.4777
G01 X12.5740 Y60.4757
G01 X12.5589 Y60.4717
G01 X12.5445 Y60.4659
G01 X12.5309 Y60.4584
G01 X12.5183 Y60.4493
G01 X12.5069 Y60.4387
G01 X12.4969 Y60.4268
G01 X12.4884 Y60.4138
G01 X12.4816 Y60.3998
G01 X12.4765 Y60.3851
G01 X12.4733 Y60.3699
G01 X12.4723 Y60.3606
G01 X12.4719 Y60.3513
G01 X12.4719 Y58.8513
G01 X12.4723 Y58.8420
G01 X12.4733 Y58.8327
G01 X12.4757 Y58.8205
G01 X12.4783 Y58.8115
G01 X12.4816 Y58.8028
G01 X12.4869 Y58.7915
G01 X12.4933 Y58.7808
G01 X12.4987 Y58.7733
G01 X12.5069 Y58.7639
G01 X12.5136 Y58.7573
G01 X12.5232 Y58.7494
G01 X12.5309 Y58.7442
G01 X12.5389 Y58.7395
G01 X12.5502 Y58.7341
G01 X12.5619 Y58.7300
G01 X12.5709 Y58.7276
G01 X12.5832 Y58.7254
G01 X12.5925 Y58.7246
G01 X15.1987 Y58.7245
G01 X15.2111 Y58.7251
G01 X15.2234 Y58.7269
G01 X15.2355 Y58.7300
G01 X15.2472 Y58.7341
G01 X15.2585 Y58.7395
G01 X15.2692 Y58.7459
G01 X15.2791 Y58.7533
G01 X15.2884 Y58.7616
G01 X15.2967 Y58.7709
G01 X15.3041 Y58.7808
G01 X15.3105 Y58.7915
G01 X15.3159 Y58.8028
G01 X15.3200 Y58.8145
G01 X15.3231 Y58.8266
G01 X15.3249 Y58.8389
G01 X15.3255 Y58.8513
G00 Z2.0000
G00 X15.3255 Y38.8513
G01 F60.00
G01 Z-0.1000
G01 F120.00
G01 X15.3255 Y40.3513
G01 X15.3246 Y40.3668
G01 X15.3231 Y40.3760
G01 X15.3209 Y40.3851
G01 X15.3159 Y40.3998
G01 X15.3090 Y40.4138
G01 X15.3006 Y40.4268
G01 X15.2905 Y40.4387
G01 X15.2791 Y40.4493
G01 X15.2665 Y40.4584
G01 X15.2529 Y40.4659
G01 X15.2385 Y40.4717
G01 X15.2234 Y40.4757
G01 X15.2080 Y40.4777
G01 X15.1987 Y40.4781
G01 X14.4007 Y40.4781
G01 X14.4007 Y55.7245
G01 X15.1987 Y55.7245
G01 X15.2080 Y55.7248
G01 X15.2234 Y55.7269
G01 X15.2385 Y55.7309
G01 X15.2529 Y55.7367
G01 X15.2665 Y55.7442
G01 X15.2791 Y55.7533
G01 X15.2905 Y55.7639
G01 X15.3006 Y55.7758
G01 X15.3090 Y55.7888
G01 X15.3159 Y55.8028
G01 X15.3209 Y55.8175
G01 X15.3231 Y55.8266
G01 X15.3246 Y55.8358
G01 X15.3255 Y55.8513
G01 X15.3255 Y57.3513
G01 X15.3252 Y57.3606
G01 X15.3241 Y57.3699
G01 X15.3217 Y57.3821
G01 X15.3191 Y57.3911
G01 X15.3159 Y57.3998
G01 X15.3105 Y57.4111
G01 X15.3058 Y57.4191
G01 X15.2987 Y57.4293
G01 X15.2927 Y57.4364
G01 X15.2839 Y57.4452
G01 X15.2742 Y57.4531
G01 X15.2665 Y57.4584
G01 X15.2557 Y57.4646
G01 X15.2472 Y57.4684
G01 X15.2385 Y57.4717
G01 X15.2265 Y57.4750
G01 X15.2142 Y57.4771
G01 X15.2049 Y57.4779
G01 X12.5987 Y57.4781
G01 X12.5894 Y57.4777
G01 X12.5801 Y57.4767
G01 X12.5679 Y57.4743
G01 X12.5589 Y57.4717
G01 X12.5502 Y57.4684
G01 X12.5389 Y57.4631
G01 X12.5283 Y57.4567
G01 X12.5207 Y57.4513
G01 X12.5113 Y57.4431
G01 X12.5048 Y57.4364
G01 X12.4987 Y57.4293
G01 X12.4916 Y57.4191
G01 X12.4854 Y57.4083
G01 X12.4816 Y57.3998
G01 X12.4783 Y57.3911
G01 X12.4750 Y57.3791
G01 X12.4733 Y57.3699
G01 X12.4721 Y57.3575
G01 X12.4719 Y55.8513
G01 X12.4729 Y55.8358
G01 X12.4750 Y55.8235
G01 X12.4783 Y55.8115
G01 X12.4841 Y55.7971
G01 X12.4884 Y55.7888
G01 X12.4933 Y55.7808
G01 X12.5027 Y55.7685
G01 X12.5136 Y55.7573
G01 X12.5207 Y55.7513
G01 X12.5283 Y55.7459
G01 X12.5417 Y55.7380
G01 X12.5502 Y55.7341
G01 X12.5589 Y55.7309
G01 X12.5740 Y55.7269
G01 X12.5894 Y55.7248
G01 X12.5987 Y55.7245
G01 X13.3967 Y55.7245
G01 X13.3967 Y40.4781
G01 X12.5987 Y40.4781
G01 X12.5894 Y40.4777
G01 X12.5740 Y40.4757
G01 X12.5589 Y40.4717
G01 X12.5445 Y40.4659
G01 X12.5309 Y40.4584
G01 X12.5183 Y40.4493
G01 X12.5069 Y40.4387
G01 X12.4969 Y40.4268
G01 X12.4884 Y40.4138
G01 X12.4816 Y40.3998
G01 X12.4765 Y40.3851
G01 X12.4733 Y40.3699
G01 X12.4723 Y40.3606
G01 X12.4719 Y40.3513
G01 X12.4719 Y38.8513
G01 X12.4723 Y38.8420
G01 X12.4733 Y38.8327
G01 X12.4757 Y38.8205
G01 X12.4783 Y38.8115
G01 X12.4816 Y38.8028
G01 X12.4869 Y38.7915
G01 X12.4933 Y38.7808
G01 X12.4987 Y38.7733
G01 X12.5069 Y38.7639
G01 X12.5136 Y38.7573
G01 X12.5232 Y38.7494
G01 X12.5309 Y38.7442
G01 X12.5389 Y38.7395
G01 X12.5502 Y38.7341
G01 X12.5619 Y38.7300
G01 X12.5709 Y38.7276
G01 X12.5832 Y38.7254
G01 X12.5925 Y38.7246
G01 X15.1987 Y38.7245
G01 X15.2111 Y38.7251
G01 X15.2234 Y38.7269
G01 X15.2355 Y38.7300
G01 X15.2472 Y38.7341
G01 X15.2585 Y38.7395
G01 X15.2692 Y38.7459
G01 X15.2791 Y38.7533
G01 X15.2884 Y38.7616
G01 X15.2967 Y38.7709
G01 X15.3041 Y38.7808
G01 X15.3105 Y38.7915
G01 X15.3159 Y38.8028
G01 X15.3200 Y38.8145
G01 X15.3231 Y38.8266
G01 X15.3249 Y38.8389
G01 X15.3255 Y38.8513
G00 Z2.0000
G00 X35.3255 Y38.8513
G01 F60.00
G01 Z-0.1000
G01 F120.00
G01 X35.3255 Y40.3513
G01 X35.3246 Y40.3668
G01 X35.3217 Y40.3821
G01 X35.3170 Y40.3969
G01 X35.3133 Y40.4055
G01 X35.3090 Y40.4138
G01 X35.3006 Y40.4268
G01 X35.2905 Y40.4387
G01 X35.2791 Y40.4493
G01 X35.2665 Y40.4584
G01 X35.2529 Y40.4659
G01 X35.2385 Y40.4717
G01 X35.2234 Y40.4757
G01 X35.2080 Y40.4777
G01 X35.1987 Y40.4781
G01 X34.4007 Y40.4781
G01 X34.4007 Y55.7245
G01 X35.1987 Y55.7245
G01 X35.2080 Y55.7248
G01 X35.2234 Y55.7269
G01 X35.2385 Y55.7309
G01 X35.2529 Y55.7367
G01 X35.2665 Y55.7442
G01 X35.2791 Y55.7533
G01 X35.2905 Y55.7639
G01 X35.3006 Y55.7758
G01 X35.3090 Y55.7888
G01 X35.3159 Y55.8028
G01 X35.3209 Y55.8175
G01 X35.3241 Y55.8327
G01 X35.3252 Y55.8420
G01 X35.3255 Y55.8513
G01 X35.3255 Y57.3513
G01 X35.3252 Y57.3606
G01 X35.3241 Y57.3699
G01 X35.3224 Y57.3791
G01 X35.3191 Y57.3911
G01 X35.3146 Y57.4027
G01 X35.3105 Y57.4111
G01 X35.3058 Y57.4191
G01 X35.2987 Y57.4293
G01 X35.2927 Y57.4364
G01 X35.2839 Y57.4452
G01 X35.2742 Y57.4531
G01 X35.2665 Y57.4584
G01 X35.2585 Y57.4631
G01 X35.2472 Y57.4684
G01 X35.2385 Y57.4717
G01 X35.2265 Y57.4750
G01 X35.2142 Y57.4771
G01 X35.2049 Y57.4779
G01 X32.5987 Y57.4781
G01 X32.5894 Y57.4777
G01 X32.5801 Y57.4767
G01 X32.5679 Y57.4743
G01 X32.5589 Y57.4717
G01 X32.5502 Y57.4684
G01 X32.5389 Y57.4631
G01 X32.5283 Y57.4567
G01 X32.5207 Y57.4513
G01 X32.5113 Y57.4431
G01 X32.5048 Y57.4364
G01 X32.4969 Y57.4268
G01 X32.4916 Y57.4191
G01 X32.4854 Y57.4083
G01 X32.4816 Y57.3998
G01 X32.4783 Y57.3911
G01 X32.4750 Y57.3791
G01 X32.4733 Y57.3699
G01 X32.4721 Y57.3575
G01 X32.4719 Y55.8513
G01 X32.4725 Y55.8389
G01 X32.4750 Y55.8235
G01 X32.4793 Y55.8086
G01 X32.4841 Y55.7971
G01 X32.4884 Y55.7888
G01 X32.4933 Y55.7808
G01 X32.5027 Y55.7685
G01 X32.5136 Y55.7573
G01 X32.5207 Y55.7513
G01 X32.5283 Y55.7459
G01 X32.5417 Y55.7380
G01 X32.5560 Y55.7319
G01 X32.5649 Y55.7291
G01 X32.5740 Y55.7269
G01 X32.5894 Y55.7248
G01 X32.5987 Y55.7245
G01 X33.3967 Y55.7245
G01 X33.3967 Y40.4781
G01 X32.5987 Y40.4781
G01 X32.5894 Y40.4777
G01 X32.5740 Y40.4757
G01 X32.5589 Y40.4717
G01 X32.5445 Y40.4659
G01 X32.5309 Y40.4584
G01 X32.5183 Y40.4493
G01 X32.5069 Y40.4387
G01 X32.4969 Y40.4268
G01 X32.4884 Y40.4138
G01 X32.4816 Y40.3998
G01 X32.4765 Y40.3851
G01 X32.4733 Y40.3699
G01 X32.4723 Y40.3606
G01 X32.4719 Y40.3513
G01 X32.4719 Y38.8513
G01 X32.4723 Y38.8420
G01 X32.4733 Y38.8327
G01 X32.4757 Y38.8205
G01 X32.4783 Y38.8115
G01 X32.4828 Y38.7999
G01 X32.4869 Y38.7915
G01 X32.4933 Y38.7808
G01 X32.4987 Y38.7733
G01 X32.5069 Y38.7639
G01 X32.5136 Y38.7573
G01 X32.5232 Y38.7494
G01 X32.5309 Y38.7442
G01 X32.5389 Y38.7395
G01 X32.5502 Y38.7341
G01 X32.5619 Y38.7300
G01 X32.5709 Y38.7276
G01 X32.5832 Y38.7254
G01 X32.5925 Y38.7246
G01 X35.1987 Y38.7245
G01 X35.2111 Y38.7251
G01 X35.2234 Y38.7269
G01 X35.2355 Y38.7300
G01 X35.2472 Y38.7341
G01 X35.2585 Y38.7395
G01 X35.2692 Y38.7459
G01 X35.2791 Y38.7533
G01 X35.2884 Y38.7616
G01 X35.2967 Y38.7709
G01 X35.3041 Y38.7808
G01 X35.3105 Y38.7915
G01 X35.3159 Y38.8028
G01 X35.3200 Y38.8145
G01 X35.3231 Y38.8266
G01 X35.3249 Y38.8389
G01 X35.3255 Y38.8513
G00 Z2.0000
G00 X55.3255 Y38.8513
G01 F60.00
G01 Z-0.1000
G01 F120.00
G01 X55.3255 Y40.3513
G01 X55.3246 Y40.3668
G01 X55.3217 Y40.3821
G01 X55.3170 Y40.3969
G01 X55.3133 Y40.4055
G01 X55.3090 Y40.4138
G01 X55.3006 Y40.4268
G01 X55.2905 Y40.4387
G01 X55.2791 Y40.4493
G01 X55.2665 Y40.4584
G01 X55.2529 Y40.4659
G01 X55.2385 Y40.4717
G01 X55.2234 Y40.4757
G01 X55.2080 Y40.4777
G01 X55.1987 Y40.4781
G01 X54.4007 Y40.4781
G01 X54.4007 Y55.7245
G01 X55.1987 Y55.7245
G01 X55.2080 Y55.7248
G01 X55.2234 Y55.7269
G01 X55.2385 Y55.7309
G01 X55.2529 Y55.7367
G01 X55.2665 Y55.7442
G01 X55.2791 Y55.7533
G01 X55.2905 Y55.7639
G01 X55.3006 Y55.7758
G01 X55.3090 Y55.7888
G01 X55.3159 Y55.8028
G01 X55.3209 Y55.8175
G01 X55.3241 Y55.8327
G01 X55.3252 Y55.8420
G01 X55.3255 Y55.8513
G01 X55.3255 Y57.3513
G01 X55.3252 Y57.3606
G01 X55.3241 Y57.3699
G01 X55.3224 Y57.3791
G01 X55.3191 Y57.3911
G01 X55.3146 Y57.4027
G01 X55.3105 Y57.4111
G01 X55.3058 Y57.4191
G01 X55.2987 Y57.4293
G01 X55.2927 Y57.4364
G01 X55.2839 Y57.4452
G01 X55.2742 Y57.4531
G01 X55.2665 Y57.4584
G01 X55.2585 Y57.4631
G01 X55.2472 Y57.4684
G01 X55.2385 Y57.4717
G01 X55.2265 Y57.4750
G01 X55.2142 Y57.4771
G01 X55.2049 Y57.4779
G01 X52.5987 Y57.4781
G01 X52.5894 Y57.4777
G01 X52.5801 Y57.4767
G01 X52.5679 Y57.4743
G01 X52.5589 Y57.4717
G01 X52.5502 Y57.4684
G01 X52.5389 Y57.4631
G01 X52.5283 Y57.4567
G01 X52.5207 Y57.4513
G01 X52.5113 Y57.4431
G01 X52.5048 Y57.4364
G01 X52.4969 Y57.4268
G01 X52.4916 Y57.4191
G01 X52.4854 Y57.4083
G01 X52.4816 Y57.3998
G01 X52.4783 Y57.3911
G01 X52.4750 Y57.3791
G01 X52.4733 Y57.3699
G01 X52.4721 Y57.3575
G01 X52.4719 Y55.8513
G01 X52.4725 Y55.8389
G01 X52.4750 Y55.8235
G01 X52.4793 Y55.8086
G01 X52.4841 Y55.7971
G01 X52.4884 Y55.7888
G01 X52.4933 Y55.7808
G01 X52.5027 Y55.7685
G01 X52.5136 Y55.7573
G01 X52.5207 Y55.7513
G01 X52.5283 Y55.7459
G01 X52.5417 Y55.7380
G01 X52.5560 Y55.7319
G01 X52.5649 Y55.7291
G01 X52.5740 Y55.7269
G01 X52.5894 Y55.7248
G01 X52.5987 Y55.7245
G01 X53.3967 Y55.7245
G01 X53.3967 Y40.4781
G01 X52.5987 Y40.4781
G01 X52.5894 Y40.4777
G01 X52.5740 Y40.4757
G01 X52.5589 Y40.4717
G01 X52.5445 Y40.4659
G01 X52.5309 Y40.4584
G01 X52.5183 Y40.4493
G01 X52.5069 Y40.4387
G01 X52.4969 Y40.4268
G01 X52.4884 Y40.4138
G01 X52.4816 Y40.3998
G01 X52.4765 Y40.3851
G01 X52.4733 Y40.3699
G01 X52.4723 Y40.3606
G01 X52.4719 Y40.3513
G01 X52.4719 Y38.8513
G01 X52.4723 Y38.8420
G01 X52.4733 Y38.8327
G01 X52.4757 Y38.8205
G01 X52.4783 Y38.8115
G01 X52.4828 Y38.7999
G01 X52.4869 Y38.7915
G01 X52.4933 Y38.7808
G01 X52.4987 Y38.7733
G01 X52.5069 Y38.7639
G01 X52.5136 Y38.7573
G01 X52.5232 Y38.7494
G01 X52.5309 Y38.7442
G01 X52.5389 Y38.7395
G01 X52.5502 Y38.7341
G01 X52.5619 Y38.7300
G01 X52.5709 Y38.7276
G01 X52.5832 Y38.7254
G01 X52.5925 Y38.7246
G01 X55.1987 Y38.7245
G01 X55.2111 Y38.7251
G01 X55.2234 Y38.7269
G01 X55.2355 Y38.7300
G01 X55.2472 Y38.7341
G01 X55.2585 Y38.7395
G01 X55.2692 Y38.7459
G01 X55.2791 Y38.7533
G01 X55.2884 Y38.7616
G01 X55.2967 Y38.7709
G01 X55.3041 Y38.7808
G01 X55.3105 Y38.7915
G01 X55.3159 Y38.8028
G01 X55.3200 Y38.8145
G01 X55.3231 Y38.8266
G01 X55.3249 Y38.8389
G01 X55.3255 Y38.8513
G00 Z2.0000
G00 X55.3255 Y78.9646
G01 F60.00
G01 Z-0.1000
G01 F120.00
G01 X57.3967 Y76.8934
G01 X57.3967 Y13.4692
G01 X56.3754 Y12.4479
G01 X56.3353 Y12.4580
G01 X56.3262 Y12.4599
G01 X56.2406 Y12.4726
G01 X56.2314 Y12.4737
G01 X56.1387 Y12.4781
G01 X56.0492 Y12.4738
G01 X56.0399 Y12.4730
G01 X55.9481 Y12.4593
G01 X55.8552 Y12.4360
G01 X55.7649 Y12.4037
G01 X55.6810 Y12.3642
G01 X55.6728 Y12.3597
G01 X55.5960 Y12.3135
G01 X55.5239 Y12.2602
G01 X55.5143 Y12.2523
G01 X55.4525 Y12.1963
G01 X55.4437 Y12.1875
G01 X55.3836 Y12.1210
G01 X55.3265 Y12.0440
G01 X55.2772 Y11.9618
G01 X55.2363 Y11.8751
G01 X55.2040 Y11.7848
G01 X55.1820 Y11.6979
G01 X55.1796 Y11.6857
G01 X55.1666 Y11.5970
G01 X55.1621 Y11.5075
G01 X55.1621 Y11.4951
G01 X55.1666 Y11.4055
G01 X55.1807 Y11.3107
G01 X55.2023 Y11.2237
G01 X55.2059 Y11.2118
G01 X55.2363 Y11.1275
G01 X55.2745 Y11.0464
G01 X55.2803 Y11.0354
G01 X55.3265 Y10.9586
G01 X55.3798 Y10.8865
G01 X55.3877 Y10.8769
G01 X55.4480 Y10.8106
G01 X55.5143 Y10.7503
G01 X55.5239 Y10.7424
G01 X55.5960 Y10.6891
G01 X55.6782 Y10.6398
G01 X55.7649 Y10.5988
G01 X55.8492 Y10.5685
G01 X55.8612 Y10.5649
G01 X55.9481 Y10.5433
G01 X56.0368 Y10.5300
G01 X56.0492 Y10.5287
G01 X56.1387 Y10.5245
G01 X56.2345 Y10.5292
G01 X56.3231 Y10.5422
G01 X56.3353 Y10.5446
G01 X56.4163 Y10.5649
G01 X56.4282 Y10.5685
G01 X56.5125 Y10.5988
G01 X56.5936 Y10.6370
G01 X56.6046 Y10.6429
G01 X56.6814 Y10.6891
G01 X56.7584 Y10.7462
G01 X56.8294 Y10.8106
G01 X56.8938 Y10.8816
G01 X56.9509 Y10.9586
G01 X56.9971 Y11.0354
G01 X57.0030 Y11.0464
G01 X57.0412 Y11.1275
G01 X57.0715 Y11.2118
G01 X57.0751 Y11.2237
G01 X57.0961 Y11.3077
G01 X57.0978 Y11.3169
G01 X57.1108 Y11.4055
G01 X57.1154 Y11.4951
G01 X57.1155 Y11.5044
G01 X57.1113 Y11.5908
G01 X57.1105 Y11.6001
G01 X57.0973 Y11.6888
G01 X57.0954 Y11.6979
G01 X57.0853 Y11.7380
G01 X58.2537 Y12.9063
G01 X58.2847 Y12.9405
G01 X58.2906 Y12.9477
G01 X58.3161 Y12.9824
G01 X58.3384 Y13.0192
G01 X58.3429 Y13.0274
G01 X58.3600 Y13.0635
G01 X58.3647 Y13.0750
G01 X58.3791 Y13.1156
G01 X58.3911 Y13.1634
G01 X58.3983 Y13.2121
G01 X58.4007 Y13.2582
G01 X58.4007 Y77.1013
G01 X58.3987 Y77.1443
G01 X58.3979 Y77.1536
G01 X58.3921 Y77.1931
G01 X58.3897 Y77.2053
G01 X58.3807 Y77.2410
G01 X58.3781 Y77.2500
G01 X58.3647 Y77.2876
G01 X58.3600 Y77.2991
G01 X58.3414 Y77.3379
G01 X58.3161 Y77.3802
G01 X58.2868 Y77.4197
G01 X58.2558 Y77.4540
G01 X55.7514 Y79.9584
G01 X55.7172 Y79.9893
G01 X55.6827 Y80.0151
G01 X55.6723 Y80.0220
G01 X55.6353 Y80.0440
G01 X55.5965 Y80.0625
G01 X55.5850 Y80.0673
G01 X55.5474 Y80.0807
G01 X55.5384 Y80.0833
G01 X55.4966 Y80.0936
G01 X55.4479 Y80.1009
G01 X55.4018 Y80.1032
G01 X55.3255 Y80.1033
G01 X55.3255 Y80.3513
G01 X55.3249 Y80.3637
G01 X55.3236 Y80.3730
G01 X55.3209 Y80.3851
G01 X55.3159 Y80.3998
G01 X55.3090 Y80.4138
G01 X55.3024 Y80.4243
G01 X55.2947 Y80.4341
G01 X55.2839 Y80.4452
G01 X55.2717 Y80.4550
G01 X55.2612 Y80.4616
G01 X55.2472 Y80.4684
G01 X55.2325 Y80.4735
G01 X55.2173 Y80.4767
G01 X55.2080 Y80.4777
G01 X55.1987 Y80.4781
G01 X52.5956 Y80.4781
G01 X52.5863 Y80.4775
G01 X52.5770 Y80.4762
G01 X52.5619 Y80.4726
G01 X52.5473 Y80.4672
G01 X52.5389 Y80.4631
G01 X52.5309 Y80.4584
G01 X52.5183 Y80.4493
G01 X52.5113 Y80.4431
G01 X52.5048 Y80.4364
G01 X52.4950 Y80.4243
G01 X52.4899 Y80.4165
G01 X52.4854 Y80.4083
G01 X52.4793 Y80.3940
G01 X52.4750 Y80.3791
G01 X52.4729 Y80.3668
G01 X52.4719 Y80.3513
G01 X52.4719 Y78.8482
G01 X52.4733 Y78.8327
G01 X52.4750 Y78.8235
G01 X52.4774 Y78.8145
G01 X52.4804 Y78.8057
G01 X52.4841 Y78.7971
G01 X52.4916 Y78.7835
G01 X52.5007 Y78.7709
G01 X52.5069 Y78.7639
G01 X52.5136 Y78.7573
G01 X52.5257 Y78.7476
G01 X52.5335 Y78.7425
G01 X52.5417 Y78.7380
G01 X52.5531 Y78.7330
G01 X52.5679 Y78.7283
G01 X52.5832 Y78.7254
G01 X52.5987 Y78.7245
G01 X55.1987 Y78.7245
G01 X55.2080 Y78.7248
G01 X55.2173 Y78.7259
G01 X55.2265 Y78.7276
G01 X55.2414 Y78.7319
G01 X55.2557 Y78.7380
G01 X55.2692 Y78.7459
G01 X55.2767 Y78.7513
G01 X55.2839 Y78.7573
G01 X55.2947 Y78.7685
G01 X55.3041 Y78.7808
G01 X55.3120 Y78.7943
G01 X55.3170 Y78.8057
G01 X55.3209 Y78.8175
G01 X55.3236 Y78.8296
G01 X55.3252 Y78.8420
G01 X55.3255 Y78.8513
G01 X55.3255 Y78.9646
G00 Z2.0000
G00 X58.4050 Y97.9504
G01 F60.00
G01 Z-0.1000
G01 F120.00
G01 X58.6995 Y97.9504
G01 X58.7236 Y97.9514
G01 X58.7329 Y97.9525
G01 X58.7536 Y97.9557
G01 X58.7799 Y97.9623
G01 X58.8055 Y97.9714
G01 X58.8245 Y97.9802
G01 X58.8328 Y97.9845
G01 X58.8534 Y97.9970
G01 X58.8728 Y98.0113
G01 X58.8908 Y98.0272
G01 X58.8996 Y98.0360
G01 X58.9136 Y98.0516
G01 X58.9298 Y98.0734
G01 X58.9437 Y98.0967
G01 X58.9528 Y98.1156
G01 X58.9576 Y98.1271
G01 X58.9654 Y98.1498
G01 X58.9711 Y98.1732
G01 X58.9747 Y98.1970
G01 X58.9763 Y98.2210
G01 X58.9763 Y98.2335
G01 X58.9751 Y98.2544
G01 X58.9717 Y98.2782
G01 X58.9697 Y98.2873
G01 X58.9645 Y98.3076
G01 X58.9565 Y98.3303
G01 X58.9528 Y98.3389
G01 X58.9437 Y98.3577
G01 X58.9331 Y98.3758
G01 X58.9280 Y98.3836
G01 X58.9136 Y98.4029
G01 X58.8975 Y98.4208
G01 X58.8908 Y98.4273
G01 X58.8752 Y98.4413
G01 X58.8584 Y98.4539
G01 X58.8508 Y98.4591
G01 X58.8301 Y98.4714
G01 X58.8112 Y98.4805
G01 X58.8026 Y98.4842
G01 X58.7799 Y98.4922
G01 X58.7566 Y98.4981
G01 X58.7329 Y98.5020
G01 X58.7205 Y98.5032
G01 X58.6995 Y98.5041
G01 X58.4050 Y98.5041
G01 X58.4049 Y98.8018
G01 X58.4037 Y98.8258
G01 X58.4002 Y98.8496
G01 X58.3947 Y98.8730
G01 X58.3911 Y98.8849
G01 X58.3839 Y98.9046
G01 X58.3751 Y98.9236
G01 X58.3708 Y98.9319
G01 X58.3617 Y98.9472
G01 X58.3566 Y98.9550
G01 X58.3441 Y98.9719
G01 X58.3381 Y98.9790
G01 X58.3239 Y98.9944
G01 X58.3085 Y99.0086
G01 X58.3013 Y99.0146
G01 X58.2845 Y99.0271
G01 X58.2767 Y99.0322
G01 X58.2586 Y99.0428
G01 X58.2398 Y99.0519
G01 X58.2312 Y99.0556
G01 X58.2114 Y99.0627
G01 X58.1882 Y99.0689
G01 X58.1760 Y99.0713
G01 X58.1552 Y99.0742
G01 X58.1281 Y99.0755
G01 X58.1010 Y99.0742
G01 X58.0802 Y99.0713
G01 X58.0680 Y99.0689
G01 X58.0507 Y99.0645
G01 X58.0418 Y99.0617
G01 X58.0222 Y99.0545
G01 X57.9976 Y99.0428
G01 X57.9743 Y99.0289
G01 X57.9549 Y99.0146
G01 X57.9368 Y98.9987
G01 X57.9280 Y98.9899
G01 X57.9121 Y98.9719
G01 X57.8962 Y98.9499
G01 X57.8854 Y98.9319
G01 X57.8811 Y98.9236
G01 X57.8723 Y98.9046
G01 X57.8651 Y98.8849
G01 X57.8623 Y98.8760
G01 X57.8572 Y98.8557
G01 X57.8555 Y98.8465
G01 X57.8526 Y98.8258
G01 X57.8512 Y98.7987
G01 X57.8512 Y98.5041
G01 X57.5536 Y98.5041
G01 X57.5295 Y98.5028
G01 X57.5057 Y98.4994
G01 X57.4823 Y98.4938
G01 X57.4704 Y98.4902
G01 X57.4507 Y98.4830
G01 X57.4317 Y98.4742
G01 X57.4234 Y98.4699
G01 X57.4081 Y98.4608
G01 X57.4003 Y98.4557
G01 X57.3835 Y98.4432
G01 X57.3763 Y98.4372
G01 X57.3609 Y98.4230
G01 X57.3467 Y98.4076
G01 X57.3407 Y98.4004
G01 X57.3282 Y98.3836
G01 X57.3231 Y98.3758
G01 X57.3125 Y98.3577
G01 X57.3034 Y98.3389
G01 X57.2997 Y98.3303
G01 X57.2927 Y98.3106
G01 X57.2858 Y98.2843
G01 X57.2819 Y98.2605
G01 X57.2807 Y98.2482
G01 X57.2798 Y98.2241
G01 X57.2811 Y98.2001
G01 X57.2851 Y98.1732
G01 X57.2917 Y98.1469
G01 X57.2986 Y98.1271
G01 X57.3021 Y98.1184
G01 X57.3097 Y98.1023
G01 X57.3156 Y98.0913
G01 X57.3265 Y98.0734
G01 X57.3427 Y98.0516
G01 X57.3609 Y98.0314
G01 X57.3763 Y98.0173
G01 X57.3859 Y98.0094
G01 X57.4055 Y97.9953
G01 X57.4234 Y97.9845
G01 X57.4317 Y97.9802
G01 X57.4507 Y97.9714
G01 X57.4704 Y97.9642
G01 X57.4793 Y97.9614
G01 X57.4996 Y97.9563
G01 X57.5088 Y97.9546
G01 X57.5295 Y97.9517
G01 X57.5567 Y97.9504
G01 X57.8512 Y97.9504
G01 X57.8513 Y97.6527
G01 X57.8526 Y97.6287
G01 X57.8560 Y97.6048
G01 X57.8615 Y97.5814
G01 X57.8651 Y97.5695
G01 X57.8723 Y97.5498
G01 X57.8811 Y97.5308
G01 X57.8854 Y97.5226
G01 X57.8946 Y97.5072
G01 X57.8997 Y97.4994
G01 X57.9121 Y97.4826
G01 X57.9181 Y97.4754
G01 X57.9323 Y97.4600
G01 X57.9477 Y97.4458
G01 X57.9549 Y97.4398
G01 X57.9717 Y97.4273
G01 X57.9795 Y97.4223
G01 X57.9976 Y97.4116
G01 X58.0165 Y97.4025
G01 X58.0250 Y97.3988
G01 X58.0448 Y97.3918
G01 X58.0710 Y97.3849
G01 X58.0948 Y97.3810
G01 X58.1072 Y97.3798
G01 X58.1312 Y97.3790
G01 X58.1552 Y97.3803
G01 X58.1821 Y97.3842
G01 X58.2085 Y97.3908
G01 X58.2283 Y97.3978
G01 X58.2398 Y97.4025
G01 X58.2559 Y97.4102
G01 X58.2640 Y97.4147
G01 X58.2819 Y97.4256
G01 X58.3038 Y97.4418
G01 X58.3239 Y97.4600
G01 X58.3381 Y97.4754
G01 X58.3460 Y97.4851
G01 X58.3600 Y97.5046
G01 X58.3708 Y97.5226
G01 X58.3751 Y97.5308
G01 X58.3839 Y97.5498
G01 X58.3911 Y97.5695
G01 X58.3939 Y97.5784
G01 X58.3990 Y97.5987
G01 X58.4007 Y97.6079
G01 X58.4037 Y97.6287
G01 X58.4050 Y97.6558
G01 X58.4050 Y97.9504
G00 Z2.0000
G00 X37.4050 Y97.9504
G01 F60.00
G01 Z-0.1000
G01 F120.00
G01 X37.6995 Y97.9504
G01 X37.7236 Y97.9514
G01 X37.7329 Y97.9525
G01 X37.7536 Y97.9557
G01 X37.7799 Y97.9623
G01 X37.8055 Y97.9714
G01 X37.8245 Y97.9802
G01 X37.8328 Y97.9845
G01 X37.8534 Y97.9970
G01 X37.8728 Y98.0113
G01 X37.8908 Y98.0272
G01 X37.8996 Y98.0360
G01 X37.9136 Y98.0516
G01 X37.9298 Y98.0734
G01 X37.9437 Y98.0967
G01 X37.9528 Y98.1156
G01 X37.9576 Y98.1271
G01 X37.9654 Y98.1498
G01 X37.9711 Y98.1732
G01 X37.9747 Y98.1970
G01 X37.9763 Y98.2210
G01 X37.9763 Y98.2335
G01 X37.9751 Y98.2544
G01 X37.9717 Y98.2782
G01 X37.9697 Y98.2873
G01 X37.9645 Y98.3076
G01 X37.9565 Y98.3303
G01 X37.9528 Y98.3389
G01 X37.9437 Y98.3577
G01 X37.9331 Y98.3758
G01 X37.9280 Y98.3836
G01 X37.9136 Y98.4029
G01 X37.8975 Y98.4208
G01 X37.8908 Y98.4273
G01 X37.8752 Y98.4413
G01 X37.8584 Y98.4539
G01 X37.8508 Y98.4591
G01 X37.8301 Y98.4714
G01 X37.8112 Y98.4805
G01 X37.8026 Y98.4842
G01 X37.7799 Y98.4922
G01 X37.7566 Y98.4981
G01 X37.7329 Y98.5020
G01 X37.7205 Y98.5032
G01 X37.6995 Y98.5041
G01 X37.4050 Y98.5041
G01 X37.4049 Y98.8018
G01 X37.4037 Y98.8258
G01 X37.4002 Y98.8496
G01 X37.3947 Y98.8730
G01 X37.3911 Y98.8849
G01 X37.3851 Y98.9017
G01 X37.3814 Y98.9103
G01 X37.3723 Y98.9292
G01 X37.3617 Y98.9472
G01 X37.3566 Y98.9550
G01 X37.3441 Y98.9719
G01 X37.3381 Y98.9790
G01 X37.3239 Y98.9944
G01 X37.3085 Y99.0086
G01 X37.3013 Y99.0146
G01 X37.2845 Y99.0271
G01 X37.2767 Y99.0322
G01 X37.2586 Y99.0428
G01 X37.2398 Y99.0519
G01 X37.2312 Y99.0556
G01 X37.2114 Y99.0627
G01 X37.1882 Y99.0689
G01 X37.1760 Y99.0713
G01 X37.1552 Y99.0742
G01 X37.1281 Y99.0755
G01 X37.1010 Y99.0742
G01 X37.0802 Y99.0713
G01 X37.0680 Y99.0689
G01 X37.0507 Y99.0645
G01 X37.0418 Y99.0617
G01 X37.0222 Y99.0545
G01 X36.9976 Y99.0428
G01 X36.9743 Y99.0289
G01 X36.9549 Y99.0146
G01 X36.9368 Y98.9987
G01 X36.9280 Y98.9899
G01 X36.9121 Y98.9719
G01 X36.8962 Y98.9499
G01 X36.8854 Y98.9319
G01 X36.8811 Y98.9236
G01 X36.8723 Y98.9046
G01 X36.8651 Y98.8849
G01 X36.8623 Y98.8760
G01 X36.8572 Y98.8557
G01 X36.8555 Y98.8465
G01 X36.8526 Y98.8258
G01 X36.8512 Y98.7987
G01 X36.8512 Y98.5041
G01 X36.5536 Y98.5041
G01 X36.5295 Y98.5028
G01 X36.5057 Y98.4994
G01 X36.4823 Y98.4938
G01 X36.4704 Y98.4902
G01 X36.4507 Y98.4830
G01 X36.4317 Y98.4742
G01 X36.4234 Y98.4699
G01 X36.4081 Y98.4608
G01 X36.4003 Y98.4557
G01 X36.3835 Y98.4432
G01 X36.3763 Y98.4372
G01 X36.3609 Y98.4230
G01 X36.3467 Y98.4076
G01 X36.3407 Y98.4004
G01 X36.3282 Y98.3836
G01 X36.3231 Y98.3758
G01 X36.3125 Y98.3577
G01 X36.3034 Y98.3389
G01 X36.2997 Y98.3303
G01 X36.2927 Y98.3106
G01 X36.2865 Y98.2873
G01 X36.2841 Y98.2751
G01 X36.2811 Y98.2544
G01 X36.2798 Y98.2272
G01 X36.2811 Y98.2001
G01 X36.2841 Y98.1793
G01 X36.2858 Y98.1702
G01 X36.2901 Y98.1529
G01 X36.2937 Y98.1409
G01 X36.3009 Y98.1213
G01 X36.3125 Y98.0967
G01 X36.3265 Y98.0734
G01 X36.3407 Y98.0540
G01 X36.3587 Y98.0337
G01 X36.3763 Y98.0173
G01 X36.3859 Y98.0094
G01 X36.4055 Y97.9953
G01 X36.4234 Y97.9845
G01 X36.4317 Y97.9802
G01 X36.4507 Y97.9714
G01 X36.4704 Y97.9642
G01 X36.4793 Y97.9614
G01 X36.4996 Y97.9563
G01 X36.5088 Y97.9546
G01 X36.5295 Y97.9517
G01 X36.5567 Y97.9504
G01 X36.8512 Y97.9504
G01 X36.8513 Y97.6527
G01 X36.8526 Y97.6287
G01 X36.8560 Y97.6048
G01 X36.8615 Y97.5814
G01 X36.8651 Y97.5695
G01 X36.8712 Y97.5527
G01 X36.8748 Y97.5442
G01 X36.8839 Y97.5253
G01 X36.8946 Y97.5072
G01 X36.8997 Y97.4994
G01 X36.9121 Y97.4826
G01 X36.9181 Y97.4754
G01 X36.9323 Y97.4600
G01 X36.9477 Y97.4458
G01 X36.9549 Y97.4398
G01 X36.9717 Y97.4273
G01 X36.9795 Y97.4223
G01 X36.9976 Y97.4116
G01 X37.0165 Y97.4025
G01 X37.0250 Y97.3988
G01 X37.0448 Y97.3918
G01 X37.0710 Y97.3849
G01 X37.0948 Y97.3810
G01 X37.1072 Y97.3798
G01 X37.1312 Y97.3790
G01 X37.1552 Y97.3803
G01 X37.1821 Y97.3842
G01 X37.2085 Y97.3908
G01 X37.2283 Y97.3978
G01 X37.2398 Y97.4025
G01 X37.2559 Y97.4102
G01 X37.2640 Y97.4147
G01 X37.2819 Y97.4256
G01 X37.3038 Y97.4418
G01 X37.3239 Y97.4600
G01 X37.3381 Y97.4754
G01 X37.3460 Y97.4851
G01 X37.3600 Y97.5046
G01 X37.3708 Y97.5226
G01 X37.3751 Y97.5308
G01 X37.3839 Y97.5498
G01 X37.3911 Y97.5695
G01 X37.3939 Y97.5784
G01 X37.3990 Y97.5987
G01 X37.4007 Y97.6079
G01 X37.4037 Y97.6287
G01 X37.4050 Y97.6558
G01 X37.4050 Y97.9504
G00 Z2.0000
G00 X15.3255 Y78.9646
G01 F60.00
G01 Z-0.1000
G01 F120.00
G01 X17.3967 Y76.8934
G01 X17.3967 Y13.4692
G01 X16.3754 Y12.4479
G01 X16.3353 Y12.4580
G01 X16.3262 Y12.4599
G01 X16.2406 Y12.4726
G01 X16.2314 Y12.4737
G01 X16.1387 Y12.4781
G01 X16.0492 Y12.4738
G01 X16.0399 Y12.4730
G01 X15.9481 Y12.4593
G01 X15.8552 Y12.4360
G01 X15.7649 Y12.4037
G01 X15.6810 Y12.3642
G01 X15.6728 Y12.3597
G01 X15.5960 Y12.3135
G01 X15.5239 Y12.2602
G01 X15.5143 Y12.2523
G01 X15.4525 Y12.1963
G01 X15.4437 Y12.1875
G01 X15.3836 Y12.1210
G01 X15.3265 Y12.0440
G01 X15.2772 Y11.9618
G01 X15.2363 Y11.8751
G01 X15.2040 Y11.7848
G01 X15.1820 Y11.6979
G01 X15.1796 Y11.6857
G01 X15.1666 Y11.5970
G01 X15.1621 Y11.5075
G01 X15.1621 Y11.4951
G01 X15.1666 Y11.4055
G01 X15.1796 Y11.3169
G01 X15.1820 Y11.3047
G01 X15.2040 Y11.2177
G01 X15.2340 Y11.1333
G01 X15.2388 Y11.1218
G01 X15.2772 Y11.0408
G01 X15.3265 Y10.9586
G01 X15.3836 Y10.8816
G01 X15.4437 Y10.8151
G01 X15.4525 Y10.8063
G01 X15.5190 Y10.7462
G01 X15.5909 Y10.6927
G01 X15.6013 Y10.6858
G01 X15.6782 Y10.6398
G01 X15.7649 Y10.5988
G01 X15.8492 Y10.5685
G01 X15.8612 Y10.5649
G01 X15.9481 Y10.5433
G01 X16.0368 Y10.5300
G01 X16.0492 Y10.5287
G01 X16.1387 Y10.5245
G01 X16.2345 Y10.5292
G01 X16.3293 Y10.5433
G01 X16.4223 Y10.5666
G01 X16.5067 Y10.5966
G01 X16.5182 Y10.6014
G01 X16.5992 Y10.6398
G01 X16.6761 Y10.6858
G01 X16.6865 Y10.6927
G01 X16.7535 Y10.7424
G01 X16.7631 Y10.7503
G01 X16.8294 Y10.8106
G01 X16.8938 Y10.8816
G01 X16.9509 Y10.9586
G01 X16.9971 Y11.0354
G01 X17.0030 Y11.0464
G01 X17.0412 Y11.1275
G01 X17.0715 Y11.2118
G01 X17.0751 Y11.2237
G01 X17.0961 Y11.3077
G01 X17.0978 Y11.3169
G01 X17.1108 Y11.4055
G01 X17.1154 Y11.4951
G01 X17.1155 Y11.5044
G01 X17.1113 Y11.5908
G01 X17.1105 Y11.6001
G01 X17.0973 Y11.6888
G01 X17.0954 Y11.6979
G01 X17.0853 Y11.7380
G01 X18.2537 Y12.9063
G01 X18.2847 Y12.9405
G01 X18.2906 Y12.9477
G01 X18.3161 Y12.9824
G01 X18.3384 Y13.0192
G01 X18.3429 Y13.0274
G01 X18.3600 Y13.0635
G01 X18.3647 Y13.0750
G01 X18.3791 Y13.1156
G01 X18.3911 Y13.1634
G01 X18.3983 Y13.2121
G01 X18.4007 Y13.2582
G01 X18.4007 Y77.1013
G01 X18.3987 Y77.1443
G01 X18.3975 Y77.1567
G01 X18.3916 Y77.1962
G01 X18.3897 Y77.2053
G01 X18.3807 Y77.2410
G01 X18.3771 Y77.2529
G01 X18.3636 Y77.2905
G01 X18.3600 Y77.2991
G01 X18.3414 Y77.3379
G01 X18.3161 Y77.3802
G01 X18.2868 Y77.4197
G01 X18.2558 Y77.4540
G01 X15.7514 Y79.9584
G01 X15.7172 Y79.9893
G01 X15.6827 Y80.0151
G01 X15.6723 Y80.0220
G01 X15.6353 Y80.0440
G01 X15.5965 Y80.0625
G01 X15.5850 Y80.0673
G01 X15.5474 Y80.0807
G01 X15.5384 Y80.0833
G01 X15.4966 Y80.0936
G01 X15.4479 Y80.1009
G01 X15.4018 Y80.1032
G01 X15.3255 Y80.1033
G01 X15.3255 Y80.3513
G01 X15.3249 Y80.3637
G01 X15.3236 Y80.3730
G01 X15.3209 Y80.3851
G01 X15.3159 Y80.3998
G01 X15.3105 Y80.4111
G01 X15.3024 Y80.4243
G01 X15.2927 Y80.4364
G01 X15.2839 Y80.4452
G01 X15.2717 Y80.4550
G01 X15.2612 Y80.4616
G01 X15.2472 Y80.4684
G01 X15.2325 Y80.4735
G01 X15.2173 Y80.4767
G01 X15.2080 Y80.4777
G01 X15.1987 Y80.4781
G01 X12.5956 Y80.4781
G01 X12.5863 Y80.4775
G01 X12.5770 Y80.4762
G01 X12.5619 Y80.4726
G01 X12.5473 Y80.4672
G01 X12.5389 Y80.4631
G01 X12.5309 Y80.4584
G01 X12.5183 Y80.4493
G01 X12.5113 Y80.4431
G01 X12.5048 Y80.4364
G01 X12.4950 Y80.4243
G01 X12.4899 Y80.4165
G01 X12.4854 Y80.4083
G01 X12.4793 Y80.3940
G01 X12.4750 Y80.3791
G01 X12.4725 Y80.3637
G01 X12.4719 Y80.3513
G01 X12.4719 Y78.8482
G01 X12.4725 Y78.8389
G01 X12.4738 Y78.8296
G01 X12.4774 Y78.8145
G01 X12.4804 Y78.8057
G01 X12.4841 Y78.7971
G01 X12.4916 Y78.7835
G01 X12.5007 Y78.7709
G01 X12.5069 Y78.7639
G01 X12.5136 Y78.7573
G01 X12.5257 Y78.7476
G01 X12.5335 Y78.7425
G01 X12.5417 Y78.7380
G01 X12.5531 Y78.7330
G01 X12.5679 Y78.7283
G01 X12.5832 Y78.7254
G01 X12.5987 Y78.7245
G01 X15.1987 Y78.7245
G01 X15.2080 Y78.7248
G01 X15.2173 Y78.7259
G01 X15.2265 Y78.7276
G01 X15.2414 Y78.7319
G01 X15.2557 Y78.7380
G01 X15.2692 Y78.7459
G01 X15.2767 Y78.7513
G01 X15.2839 Y78.7573
G01 X15.2947 Y78.7685
G01 X15.3041 Y78.7808
G01 X15.3120 Y78.7943
G01 X15.3170 Y78.8057
G01 X15.3209 Y78.8175
G01 X15.3236 Y78.8296
G01 X15.3252 Y78.8420
G01 X15.3255 Y78.8513
G01 X15.3255 Y78.9646
G00 Z2.0000
M05
G00 Z2.0000
G00 Z15.00


