(G-CODE GENERATED BY FLATCAM v8.994 - www.flatcam.org - Version Date: 2020/11/7)

(Name: green_led_pcb-Edge_Cuts.gbr_cutout_cnc)
(Type: G-code from Geometry)
(Units: MM)

(Created on Monday, 20 November 2023 at 17:51)

(This preprocessor is the default preprocessor used by FlatCAM.)
(It is made to work with MACH3 compatible motion controllers.)

(TOOL DIAMETER: 0.8 mm)
(Feedrate_XY: 120.0 mm/min)
(Feedrate_Z: 60.0 mm/min)
(Feedrate rapids 1500.0 mm/min)

(Z_Cut: -1.8 mm)
(DepthPerCut: 0.6 mm <=>3 passes)
(Z_Move: 2.0 mm)
(Z Start: None mm)
(Z End: 15.0 mm)
(X,Y End: None mm)
(Steps per circle: 64)
(Preprocessor Geometry: default)

(X range:    7.3487 ...   84.4487  mm)
(Y range:    4.5513 ...   88.6513  mm)

(Spindle Speed: 0.0 RPM)
G21
G90
G94

G01 F120.00

M5
G00 Z15.0000
G00 X0.0000 Y0.0000
T6M6    
(MSG, Change to Tool Dia = 0.8000)
M0
G00 Z15.0000

M03
G01 F120.00
G00 X43.5987 Y4.5513
G01 F60.00
G01 Z-0.6000
G01 F120.00
G01 X7.8487 Y4.5513
G01 X7.7997 Y4.5537
G01 X7.7511 Y4.5609
G01 X7.7035 Y4.5728
G01 X7.6573 Y4.5893
G01 X7.6130 Y4.6103
G01 X7.5709 Y4.6355
G01 X7.5315 Y4.6648
G01 X7.4951 Y4.6977
G01 X7.4622 Y4.7341
G01 X7.4329 Y4.7735
G01 X7.4077 Y4.8156
G01 X7.3867 Y4.8599
G01 X7.3702 Y4.9061
G01 X7.3583 Y4.9537
G01 X7.3511 Y5.0023
G01 X7.3487 Y5.0513
G01 X7.3487 Y44.3013
G00 X7.3487 Y44.3013
G01 F60.00
G01 Z-1.2000
G01 F120.00
G01 X7.3487 Y5.0513
G01 X7.3511 Y5.0023
G01 X7.3583 Y4.9537
G01 X7.3702 Y4.9061
G01 X7.3867 Y4.8599
G01 X7.4077 Y4.8156
G01 X7.4329 Y4.7735
G01 X7.4622 Y4.7341
G01 X7.4951 Y4.6977
G01 X7.5315 Y4.6648
G01 X7.5709 Y4.6355
G01 X7.6130 Y4.6103
G01 X7.6573 Y4.5893
G01 X7.7035 Y4.5728
G01 X7.7511 Y4.5609
G01 X7.7997 Y4.5537
G01 X7.8487 Y4.5513
G01 X43.5987 Y4.5513
G00 X43.5987 Y4.5513
G01 F60.00
G01 Z-1.8000
G01 F120.00
G01 X7.8487 Y4.5513
G01 X7.7997 Y4.5537
G01 X7.7511 Y4.5609
G01 X7.7035 Y4.5728
G01 X7.6573 Y4.5893
G01 X7.6130 Y4.6103
G01 X7.5709 Y4.6355
G01 X7.5315 Y4.6648
G01 X7.4951 Y4.6977
G01 X7.4622 Y4.7341
G01 X7.4329 Y4.7735
G01 X7.4077 Y4.8156
G01 X7.3867 Y4.8599
G01 X7.3702 Y4.9061
G01 X7.3583 Y4.9537
G01 X7.3511 Y5.0023
G01 X7.3487 Y5.0513
G01 X7.3487 Y44.3013
G00 Z2.0000
G00 X7.3487 Y49.1013
G01 F60.00
G01 Z-0.6000
G01 F120.00
G01 X7.3487 Y88.1513
G01 X7.3511 Y88.2003
G01 X7.3583 Y88.2489
G01 X7.3702 Y88.2965
G01 X7.3867 Y88.3427
G01 X7.4077 Y88.3870
G01 X7.4329 Y88.4291
G01 X7.4622 Y88.4685
G01 X7.4951 Y88.5049
G01 X7.5315 Y88.5378
G01 X7.5709 Y88.5671
G01 X7.6130 Y88.5923
G01 X7.6573 Y88.6133
G01 X7.7035 Y88.6298
G01 X7.7511 Y88.6417
G01 X7.7997 Y88.6489
G01 X7.8487 Y88.6513
G01 X43.5987 Y88.6513
G00 X43.5987 Y88.6513
G01 F60.00
G01 Z-1.2000
G01 F120.00
G01 X7.8487 Y88.6513
G01 X7.7997 Y88.6489
G01 X7.7511 Y88.6417
G01 X7.7035 Y88.6298
G01 X7.6573 Y88.6133
G01 X7.6130 Y88.5923
G01 X7.5709 Y88.5671
G01 X7.5315 Y88.5378
G01 X7.4951 Y88.5049
G01 X7.4622 Y88.4685
G01 X7.4329 Y88.4291
G01 X7.4077 Y88.3870
G01 X7.3867 Y88.3427
G01 X7.3702 Y88.2965
G01 X7.3583 Y88.2489
G01 X7.3511 Y88.2003
G01 X7.3487 Y88.1513
G01 X7.3487 Y49.1013
G00 X7.3487 Y49.1013
G01 F60.00
G01 Z-1.8000
G01 F120.00
G01 X7.3487 Y88.1513
G01 X7.3511 Y88.2003
G01 X7.3583 Y88.2489
G01 X7.3702 Y88.2965
G01 X7.3867 Y88.3427
G01 X7.4077 Y88.3870
G01 X7.4329 Y88.4291
G01 X7.4622 Y88.4685
G01 X7.4951 Y88.5049
G01 X7.5315 Y88.5378
G01 X7.5709 Y88.5671
G01 X7.6130 Y88.5923
G01 X7.6573 Y88.6133
G01 X7.7035 Y88.6298
G01 X7.7511 Y88.6417
G01 X7.7997 Y88.6489
G01 X7.8487 Y88.6513
G01 X43.5987 Y88.6513
G00 Z2.0000
G00 X48.3987 Y88.6513
G01 F60.00
G01 Z-0.6000
G01 F120.00
G01 X83.9487 Y88.6513
G01 X83.9977 Y88.6489
G01 X84.0463 Y88.6417
G01 X84.0939 Y88.6298
G01 X84.1401 Y88.6133
G01 X84.1844 Y88.5923
G01 X84.2265 Y88.5671
G01 X84.2659 Y88.5378
G01 X84.3023 Y88.5049
G01 X84.3352 Y88.4685
G01 X84.3645 Y88.4291
G01 X84.3897 Y88.3870
G01 X84.4107 Y88.3427
G01 X84.4272 Y88.2965
G01 X84.4391 Y88.2489
G01 X84.4463 Y88.2003
G01 X84.4487 Y88.1513
G01 X84.4487 Y49.1013
G00 X84.4487 Y49.1013
G01 F60.00
G01 Z-1.2000
G01 F120.00
G01 X84.4487 Y88.1513
G01 X84.4463 Y88.2003
G01 X84.4391 Y88.2489
G01 X84.4272 Y88.2965
G01 X84.4107 Y88.3427
G01 X84.3897 Y88.3870
G01 X84.3645 Y88.4291
G01 X84.3352 Y88.4685
G01 X84.3023 Y88.5049
G01 X84.2659 Y88.5378
G01 X84.2265 Y88.5671
G01 X84.1844 Y88.5923
G01 X84.1401 Y88.6133
G01 X84.0939 Y88.6298
G01 X84.0463 Y88.6417
G01 X83.9977 Y88.6489
G01 X83.9487 Y88.6513
G01 X48.3987 Y88.6513
G00 X48.3987 Y88.6513
G01 F60.00
G01 Z-1.8000
G01 F120.00
G01 X83.9487 Y88.6513
G01 X83.9977 Y88.6489
G01 X84.0463 Y88.6417
G01 X84.0939 Y88.6298
G01 X84.1401 Y88.6133
G01 X84.1844 Y88.5923
G01 X84.2265 Y88.5671
G01 X84.2659 Y88.5378
G01 X84.3023 Y88.5049
G01 X84.3352 Y88.4685
G01 X84.3645 Y88.4291
G01 X84.3897 Y88.3870
G01 X84.4107 Y88.3427
G01 X84.4272 Y88.2965
G01 X84.4391 Y88.2489
G01 X84.4463 Y88.2003
G01 X84.4487 Y88.1513
G01 X84.4487 Y49.1013
G00 Z2.0000
G00 X84.4487 Y44.3013
G01 F60.00
G01 Z-0.6000
G01 F120.00
G01 X84.4487 Y5.0513
G01 X84.4463 Y5.0023
G01 X84.4391 Y4.9537
G01 X84.4272 Y4.9061
G01 X84.4107 Y4.8599
G01 X84.3897 Y4.8156
G01 X84.3645 Y4.7735
G01 X84.3352 Y4.7341
G01 X84.3023 Y4.6977
G01 X84.2659 Y4.6648
G01 X84.2265 Y4.6355
G01 X84.1844 Y4.6103
G01 X84.1401 Y4.5893
G01 X84.0939 Y4.5728
G01 X84.0463 Y4.5609
G01 X83.9977 Y4.5537
G01 X83.9487 Y4.5513
G01 X48.3987 Y4.5513
G00 X48.3987 Y4.5513
G01 F60.00
G01 Z-1.2000
G01 F120.00
G01 X83.9487 Y4.5513
G01 X83.9977 Y4.5537
G01 X84.0463 Y4.5609
G01 X84.0939 Y4.5728
G01 X84.1401 Y4.5893
G01 X84.1844 Y4.6103
G01 X84.2265 Y4.6355
G01 X84.2659 Y4.6648
G01 X84.3023 Y4.6977
G01 X84.3352 Y4.7341
G01 X84.3645 Y4.7735
G01 X84.3897 Y4.8156
G01 X84.4107 Y4.8599
G01 X84.4272 Y4.9061
G01 X84.4391 Y4.9537
G01 X84.4463 Y5.0023
G01 X84.4487 Y5.0513
G01 X84.4487 Y44.3013
G00 X84.4487 Y44.3013
G01 F60.00
G01 Z-1.8000
G01 F120.00
G01 X84.4487 Y5.0513
G01 X84.4463 Y5.0023
G01 X84.4391 Y4.9537
G01 X84.4272 Y4.9061
G01 X84.4107 Y4.8599
G01 X84.3897 Y4.8156
G01 X84.3645 Y4.7735
G01 X84.3352 Y4.7341
G01 X84.3023 Y4.6977
G01 X84.2659 Y4.6648
G01 X84.2265 Y4.6355
G01 X84.1844 Y4.6103
G01 X84.1401 Y4.5893
G01 X84.0939 Y4.5728
G01 X84.0463 Y4.5609
G01 X83.9977 Y4.5537
G01 X83.9487 Y4.5513
G01 X48.3987 Y4.5513
G00 Z2.0000
M05
G00 Z2.0000
G00 Z15.00


